res/luts/CoolLookUp.cube
LUT_3D_SIZE 16
0.000000 0.000000 0.000000
0.040464 0.015184 0.019140
0.083537 0.030354 0.038171
0.129044 0.045513 0.057094
0.176864 0.060676 0.075925
0.226848 0.075827 0.094646
0.278912 0.090960 0.113263
0.333221 0.106110 0.131774
0.389918 0.121249 0.150203
0.448735 0.136383 0.168524
0.509487 0.151498 0.186718
0.571975 0.166617 0.204817
0.636043 0.181736 0.222802
0.701283 0.196841 0.240695
0.767159 0.211907 0.258443
0.832628 0.227020 0.276130
0.014924 0.068619 0.031674
0.042093 0.069378 0.035279
0.084210 0.072491 0.046820
0.129440 0.078300 0.062421
0.177148 0.086494 0.079577
0.227050 0.096548 0.097342
0.279107 0.107925 0.115363
0.333362 0.120248 0.133470
0.389990 0.133242 0.151593
0.448836 0.146716 0.169677
0.509547 0.160513 0.187720
0.572128 0.174565 0.205688
0.636111 0.188782 0.223561
0.701388 0.203200 0.241383
0.767252 0.217665 0.259062
0.832735 0.232234 0.276686
0.030228 0.137110 0.063056
0.048289 0.137399 0.064493
0.086995 0.138618 0.070197
0.131131 0.141055 0.080101
0.178326 0.144836 0.093008
0.227960 0.149979 0.107812
0.279819 0.156423 0.123742
0.333994 0.164067 0.140337
0.390603 0.172797 0.157341
0.449312 0.182433 0.174585
0.509948 0.192840 0.191964
0.572551 0.203919 0.209396
0.636449 0.215548 0.226822
0.701684 0.227648 0.244295
0.767466 0.240111 0.261673
0.832967 0.252933 0.279047
0.045901 0.205441 0.094145
0.058457 0.205624 0.094975
0.092336 0.206324 0.098366
0.134505 0.207709 0.104774
0.180724 0.209935 0.113975
0.229811 0.213038 0.125444
0.281287 0.217055 0.138588
0.335252 0.221939 0.152935
0.391655 0.227737 0.168134
0.450270 0.234389 0.183919
0.510820 0.241813 0.200131
0.573276 0.250019 0.216621
0.637117 0.258869 0.233254
0.702425 0.268335 0.250059
0.768015 0.278340 0.266848
0.833417 0.288876 0.283761
0.061954 0.273708 0.124975
0.071202 0.273810 0.125512
0.100199 0.274284 0.127808
0.139710 0.275211 0.132275
0.184501 0.276717 0.138997
0.232732 0.278818 0.147792
0.283680 0.281571 0.158373
0.337247 0.285001 0.170377
0.393421 0.289098 0.183530
0.451789 0.293890 0.197560
0.512172 0.299339 0.212234
0.574506 0.305466 0.227446
0.638174 0.312186 0.242975
0.703306 0.319502 0.258826
0.768985 0.327325 0.274818
0.834386 0.335685 0.291012
0.078350 0.341612 0.155503
0.085514 0.341676 0.155895
0.110241 0.342026 0.157571
0.146720 0.342687 0.160895
0.189699 0.343774 0.165993
0.236822 0.345309 0.172854
0.286995 0.347326 0.181367
0.340088 0.349835 0.191340
0.395832 0.352893 0.202550
0.453959 0.356445 0.214748
0.514079 0.360532 0.227812
0.576280 0.365218 0.241570
0.639797 0.370318 0.255851
0.704787 0.376036 0.270570
0.770266 0.382205 0.285564
0.835500 0.388827 0.300873
0.095097 0.408307 0.185733
0.100866 0.408379 0.186039
0.122068 0.408593 0.187350
0.155469 0.409174 0.189901
0.196376 0.409994 0.193923
0.242106 0.411154 0.199404
0.291391 0.412730 0.206365
0.343802 0.414677 0.214652
0.399081 0.417007 0.224165
0.456771 0.419737 0.234730
0.516639 0.422981 0.246249
0.578557 0.426655 0.258563
0.641816 0.430718 0.271487
0.706664 0.435254 0.285004
0.771909 0.440190 0.298881
0.837171 0.445580 0.313164
0.112195 0.474112 0.215698
0.117001 0.474179 0.215916
0.135331 0.474378 0.216961
0.165771 0.474787 0.219039
0.204438 0.475439 0.222261
0.248620 0.476407 0.226761
0.296778 0.477610 0.232535
0.348427 0.479172 0.239507
0.403074 0.481071 0.247602
0.460355 0.483305 0.256756
0.519852 0.485885 0.266841
0.581246 0.488841 0.277787
0.644409 0.492173 0.289401
0.708975 0.495891 0.301706
0.774037 0.499960 0.314446
0.839337 0.504386 0.327715
0.129633 0.539304 0.245378
0.133710 0.539326 0.245569
0.149749 0.539488 0.246395
0.177466 0.539840 0.248101
0.213865 0.540369 0.250814
0.256326 0.541159 0.254555
0.303285 0.542147 0.259387
0.354041 0.543483 0.265305
0.407948 0.545012 0.272278
0.464682 0.546870 0.280233
0.523689 0.549040 0.289102
0.584820 0.551540 0.298763
0.647554 0.554205 0.309186
0.711917 0.557376 0.320334
0.776732 0.560784 0.331997
0.842099 0.564497 0.344201
0.147380 0.604061 0.274716
0.150923 0.604093 0.274875
0.165111 0.604252 0.275599
0.190400 0.604535 0.277029
0.224563 0.604984 0.279332
0.265206 0.605672 0.282486
0.310832 0.606514 0.286625
0.360577 0.607616 0.291680
0.413731 0.608925 0.297725
0.469772 0.610520 0.304684
0.528251 0.612372 0.312469
0.588995 0.614463 0.321084
0.651388 0.616801 0.330417
0.715313 0.619495 0.340475
0.779826 0.622384 0.351076
0.845469 0.625608 0.362305
0.165447 0.668879 0.303760
0.168569 0.668913 0.303909
0.181233 0.669020 0.304507
0.204356 0.669261 0.305760
0.236387 0.669732 0.307683
0.275226 0.670237 0.310456
0.319448 0.670969 0.314007
0.368050 0.671957 0.318415
0.420380 0.673068 0.323670
0.475679 0.674462 0.329773
0.533555 0.676089 0.336684
0.593822 0.677895 0.344343
0.655714 0.679980 0.352741
0.719248 0.682248 0.361785
0.783379 0.684815 0.371402
0.849769 0.687698 0.381592
0.183841 0.734323 0.332539
0.186600 0.734396 0.332668
0.198045 0.734483 0.333200
0.219252 0.734631 0.334253
0.249269 0.735064 0.335951
0.286343 0.735538 0.338324
0.329097 0.736241 0.341459
0.376513 0.737077 0.345314
0.427877 0.738042 0.349941
0.482360 0.739275 0.355342
0.539654 0.740693 0.361439
0.599274 0.742397 0.368340
0.660754 0.744186 0.375826
0.723804 0.746257 0.383944
0.787548 0.748544 0.392661
0.855138 0.751089 0.401960
0.202527 0.800854 0.360952
0.205000 0.800801 0.361054
0.215386 0.800915 0.361503
0.234961 0.801181 0.362451
0.263054 0.801489 0.363937
0.298416 0.801968 0.366025
0.339737 0.802545 0.368753
0.385935 0.803369 0.372189
0.436232 0.804200 0.376267
0.489900 0.805378 0.381056
0.546457 0.806675 0.386490
0.605420 0.808186 0.392567
0.666324 0.809762 0.399329
0.728938 0.811595 0.406610
0.792120 0.813766 0.414466
0.861764 0.816057 0.422865
0.221515 0.869454 0.389001
0.223799 0.869489 0.389078
0.233292 0.869568 0.389537
0.251384 0.869817 0.390302
0.277802 0.870037 0.391617
0.311485 0.870515 0.393487
0.351352 0.871056 0.395839
0.396315 0.871730 0.398864
0.445482 0.872612 0.402515
0.498228 0.873679 0.406772
0.553954 0.874816 0.411599
0.612213 0.876171 0.417036
0.672597 0.877730 0.423072
0.734611 0.879492 0.429670
0.797286 0.881448 0.436815
0.870807 0.883600 0.444409
0.240776 0.940344 0.416393
0.242876 0.940381 0.416470
0.251567 0.940511 0.416833
0.268415 0.940612 0.417570
0.293254 0.940911 0.418735
0.325405 0.941297 0.420365
0.363796 0.941760 0.422488
0.407482 0.942484 0.425151
0.455528 0.943202 0.428363
0.507314 0.944121 0.432134
0.562203 0.945143 0.436456
0.619861 0.946384 0.441389
0.679457 0.947627 0.446838
0.740953 0.949143 0.452745
0.802838 0.950711 0.459251
0.883891 0.952457 0.466203
0.260377 0.988030 0.443327
0.262316 0.988044 0.443392
0.270340 0.988111 0.443682
0.286067 0.988115 0.444308
0.309522 0.988250 0.445327
0.340198 0.988297 0.446823
0.377177 0.988542 0.448719
0.419548 0.988700 0.451092
0.466488 0.988973 0.453970
0.517240 0.989313 0.457360
0.571243 0.989661 0.461236
0.628018 0.990042 0.465649
0.687012 0.990512 0.470601
0.747785 0.991122 0.475974
0.809113 0.991796 0.481829
0.908053 0.992625 0.488153
0.005703 0.009697 0.082827
0.040632 0.017151 0.083813
0.083598 0.031156 0.087842
0.129079 0.045974 0.095291
0.176901 0.060983 0.105697
0.226875 0.076048 0.118330
0.278943 0.091149 0.132501
0.333237 0.106261 0.147711
0.389944 0.121366 0.163624
0.448748 0.136484 0.180013
0.509460 0.151584 0.196667
0.571985 0.166697 0.213543
0.636052 0.181765 0.230516
0.701294 0.196928 0.247597
0.767159 0.211985 0.264660
0.832639 0.227062 0.281721
0.015541 0.068876 0.086076
0.042255 0.069632 0.087007
0.084266 0.072735 0.090835
0.129479 0.078514 0.097962
0.177185 0.086682 0.108001
0.227098 0.096695 0.120291
0.279124 0.108063 0.134160
0.333378 0.120368 0.149138
0.390015 0.133349 0.164853
0.448848 0.146796 0.181062
0.509560 0.160584 0.197603
0.572138 0.174630 0.214374
0.636121 0.188862 0.231249
0.701398 0.203255 0.248266
0.767262 0.217708 0.265240
0.832746 0.232267 0.282250
0.030469 0.137196 0.098287
0.048426 0.137483 0.099052
0.087055 0.138711 0.102258
0.131168 0.141152 0.108346
0.178354 0.144928 0.117151
0.227986 0.150075 0.128206
0.279860 0.156502 0.140983
0.334009 0.164128 0.155024
0.390595 0.172846 0.169944
0.449324 0.182469 0.185536
0.509962 0.192889 0.201536
0.572561 0.203955 0.217872
0.636459 0.215607 0.234386
0.701695 0.227688 0.251058
0.767476 0.240153 0.267752
0.832978 0.252971 0.284555
0.046045 0.205508 0.117957
0.058565 0.205671 0.118545
0.092401 0.206371 0.121042
0.134546 0.207774 0.125873
0.180749 0.209996 0.133054
0.229837 0.213078 0.142399
0.281318 0.217086 0.153513
0.335268 0.222008 0.166042
0.391634 0.227781 0.179665
0.450282 0.234435 0.194097
0.510833 0.241880 0.209141
0.573286 0.250066 0.224665
0.637127 0.258903 0.240457
0.702436 0.268392 0.256544
0.768025 0.278377 0.272766
0.833431 0.288899 0.289109
0.062046 0.273725 0.142003
0.071283 0.273858 0.142462
0.100258 0.274332 0.144370
0.139734 0.275244 0.148121
0.184515 0.276746 0.153869
0.232761 0.278867 0.161507
0.283679 0.281617 0.170858
0.337263 0.285042 0.181699
0.393411 0.289131 0.193729
0.451802 0.293920 0.206754
0.512185 0.299390 0.220514
0.574475 0.305491 0.234927
0.638184 0.312208 0.249775
0.703317 0.319538 0.265020
0.768996 0.327330 0.280497
0.834355 0.335737 0.296175
0.078428 0.341636 0.168323
0.085582 0.341699 0.168673
0.110278 0.342044 0.170137
0.146749 0.342710 0.173121
0.189731 0.343798 0.177725
0.236842 0.345322 0.183933
0.287027 0.347350 0.191730
0.340092 0.349859 0.200959
0.395858 0.352908 0.211414
0.453971 0.356486 0.222930
0.514093 0.360585 0.235302
0.576293 0.365210 0.248454
0.639807 0.370332 0.262134
0.704799 0.376060 0.276357
0.770276 0.382225 0.290887
0.835512 0.388876 0.305778
0.095161 0.408282 0.195786
0.100926 0.408384 0.196049
0.122113 0.408642 0.197236
0.155504 0.409167 0.199625
0.196405 0.409958 0.203368
0.242126 0.411207 0.208480
0.291383 0.412718 0.215001
0.343818 0.414664 0.222825
0.399062 0.417007 0.231839
0.456783 0.419761 0.241911
0.516652 0.423013 0.252916
0.578571 0.426637 0.264738
0.641792 0.430752 0.277227
0.706674 0.435276 0.290317
0.771919 0.440213 0.303844
0.837183 0.445570 0.317801
0.112241 0.474135 0.223792
0.117035 0.474181 0.224030
0.135371 0.474375 0.225011
0.165797 0.474810 0.226937
0.204478 0.475462 0.230050
0.248640 0.476403 0.234307
0.296810 0.477632 0.239781
0.348443 0.479184 0.246435
0.403099 0.481094 0.254214
0.460344 0.483328 0.263008
0.519810 0.485908 0.272780
0.581260 0.488864 0.283341
0.644419 0.492196 0.294630
0.708990 0.495914 0.306587
0.774047 0.499983 0.319047
0.839350 0.504409 0.332017
0.129656 0.539280 0.252037
0.133740 0.539350 0.252249
0.149786 0.539512 0.253048
0.177497 0.539810 0.254701
0.213907 0.540393 0.257287
0.256356 0.541182 0.260880
0.303293 0.542164 0.265552
0.354064 0.543507 0.271269
0.407974 0.545036 0.278001
0.464694 0.546893 0.285706
0.523703 0.549083 0.294307
0.584834 0.551510 0.303733
0.647564 0.554229 0.313917
0.711932 0.557400 0.324784
0.776742 0.560778 0.336195
0.842112 0.564539 0.348179
0.147418 0.604072 0.280366
0.150960 0.604129 0.280548
0.165135 0.604263 0.281240
0.190414 0.604546 0.282626
0.224591 0.604995 0.284815
0.265236 0.605683 0.287910
0.310841 0.606525 0.291916
0.360600 0.607609 0.296864
0.413757 0.608937 0.302740
0.469785 0.610531 0.309490
0.528264 0.612383 0.317107
0.589009 0.614474 0.325528
0.651398 0.616812 0.334700
0.715328 0.619506 0.344525
0.779837 0.622396 0.354980
0.845483 0.625619 0.365912
0.165468 0.668891 0.308593
0.168590 0.668925 0.308746
0.181261 0.669031 0.309342
0.204396 0.669273 0.310555
0.236401 0.669744 0.312449
0.275257 0.670248 0.315128
0.319479 0.670931 0.318597
0.368074 0.671968 0.322897
0.420387 0.673079 0.328054
0.475666 0.674474 0.334040
0.533568 0.676101 0.340789
0.593837 0.677906 0.348338
0.655725 0.679954 0.356567
0.719263 0.682259 0.365495
0.783390 0.684827 0.374940
0.849783 0.687671 0.384959
0.183862 0.734348 0.336746
0.186638 0.734420 0.336872
0.198051 0.734507 0.337375
0.219294 0.734608 0.338438
0.249290 0.735089 0.340082
0.286375 0.735562 0.342424
0.329113 0.736265 0.345476
0.376538 0.737101 0.349266
0.427895 0.738066 0.353848
0.482403 0.739299 0.359158
0.539621 0.740718 0.365161
0.599288 0.742422 0.371908
0.660764 0.744210 0.379272
0.723819 0.746281 0.387280
0.787559 0.748569 0.395818
0.855154 0.751106 0.405020
0.202524 0.800778 0.364650
0.205051 0.800813 0.364762
0.215427 0.800927 0.365202
0.234963 0.801169 0.366105
0.263084 0.801500 0.367576
0.298426 0.801979 0.369631
0.339741 0.802556 0.372307
0.385960 0.803380 0.375655
0.436244 0.804185 0.379701
0.489913 0.805390 0.384432
0.546471 0.806687 0.389734
0.605434 0.808197 0.395791
0.666334 0.809774 0.402406
0.728953 0.811607 0.409650
0.792130 0.813737 0.417392
0.861783 0.816069 0.425689
0.221523 0.869466 0.392237
0.223828 0.869502 0.392332
0.233295 0.869581 0.392758
0.251393 0.869829 0.393530
0.277832 0.870049 0.394802
0.311478 0.870527 0.396669
0.351363 0.871069 0.399023
0.396304 0.871742 0.402011
0.445495 0.872624 0.405529
0.498241 0.873692 0.409742
0.553969 0.874828 0.414461
0.612228 0.876183 0.419858
0.672556 0.877742 0.425863
0.734626 0.879504 0.432373
0.797297 0.881460 0.439369
0.870831 0.883613 0.446939
0.240796 0.940356 0.419248
0.242896 0.940394 0.419352
0.251627 0.940524 0.419674
0.268430 0.940625 0.420396
0.293286 0.940923 0.421558
0.325438 0.941310 0.423185
0.363820 0.941772 0.425277
0.407510 0.942496 0.427930
0.455563 0.943214 0.431081
0.507327 0.944134 0.434837
0.562213 0.945155 0.439128
0.619871 0.946396 0.443968
0.679467 0.947641 0.449329
0.740968 0.949155 0.455203
0.802849 0.950723 0.461579
0.883876 0.952468 0.468528
0.260396 0.988035 0.445870
0.262329 0.988049 0.445955
0.270370 0.988115 0.446271
0.286065 0.988120 0.446894
0.309555 0.988255 0.447867
0.340205 0.988302 0.449323
0.377201 0.988546 0.451183
0.419574 0.988709 0.453547
0.466501 0.988978 0.456408
0.517254 0.989321 0.459752
0.571254 0.989666 0.463584
0.628028 0.990047 0.467960
0.687022 0.990517 0.472848
0.747801 0.991127 0.478207
0.809124 0.991721 0.484017
0.908119 0.992632 0.490304
0.011442 0.019356 0.163685
0.041345 0.023285 0.164051
0.083898 0.034285 0.165616
0.129261 0.047859 0.168679
0.177013 0.062269 0.173465
0.226962 0.077000 0.179901
0.278999 0.091894 0.187964
0.333296 0.106854 0.197422
0.389969 0.121865 0.208151
0.448779 0.136902 0.219942
0.509517 0.151943 0.232582
0.572082 0.167011 0.245926
0.636095 0.182057 0.259804
0.701339 0.197156 0.274215
0.767204 0.212207 0.288938
0.832685 0.227267 0.303939
0.017874 0.069968 0.164920
0.042930 0.070705 0.165274
0.084552 0.073749 0.166819
0.129645 0.079427 0.169866
0.177295 0.087480 0.174585
0.227164 0.097379 0.180984
0.279192 0.108654 0.188963
0.333446 0.120872 0.198362
0.390097 0.133786 0.208997
0.448881 0.147180 0.220708
0.509618 0.160934 0.233300
0.572180 0.174930 0.246569
0.636121 0.189121 0.260433
0.701444 0.203487 0.274774
0.767307 0.217932 0.289448
0.832796 0.232491 0.304421
0.031493 0.137622 0.170009
0.048989 0.137896 0.170354
0.087331 0.139130 0.171816
0.131341 0.141547 0.174754
0.178475 0.145316 0.179297
0.228085 0.150445 0.185436
0.279928 0.156864 0.193148
0.334070 0.164479 0.202260
0.390607 0.173167 0.212636
0.449364 0.182772 0.224011
0.510018 0.193158 0.236346
0.572558 0.204224 0.249397
0.636502 0.215795 0.262993
0.701742 0.227887 0.277128
0.767455 0.240330 0.291610
0.832953 0.253147 0.306482
0.046654 0.205760 0.179724
0.059016 0.205920 0.180033
0.092649 0.206621 0.181391
0.134716 0.208025 0.184087
0.180861 0.210220 0.188277
0.229936 0.213316 0.194029
0.281383 0.217304 0.201247
0.335329 0.222212 0.209827
0.391707 0.228003 0.219667
0.450328 0.234662 0.230581
0.510891 0.242064 0.242375
0.573328 0.250239 0.254952
0.637157 0.259076 0.268166
0.702433 0.268550 0.281894
0.768071 0.278557 0.296032
0.833478 0.289033 0.310544
0.062467 0.273891 0.193775
0.071627 0.274012 0.194053
0.100483 0.274479 0.195272
0.139890 0.275425 0.197703
0.184654 0.276911 0.201493
0.232845 0.279016 0.206675
0.283741 0.281764 0.213249
0.337339 0.285197 0.221171
0.393470 0.289290 0.230282
0.451861 0.294074 0.240453
0.512200 0.299536 0.251579
0.574513 0.305629 0.263487
0.638195 0.312335 0.276066
0.703407 0.319663 0.289242
0.768941 0.327480 0.302855
0.834403 0.335825 0.316858
0.078739 0.341718 0.211454
0.085862 0.341811 0.211694
0.110496 0.342173 0.212767
0.146890 0.342858 0.214894
0.189839 0.343940 0.218240
0.236937 0.345466 0.222855
0.287110 0.347471 0.228757
0.340180 0.349978 0.235881
0.395914 0.353034 0.244193
0.453994 0.356592 0.253534
0.514192 0.360696 0.263810
0.576355 0.365339 0.274941
0.639836 0.370505 0.286729
0.704794 0.376132 0.299184
0.770321 0.382360 0.312146
0.835564 0.388969 0.325521
0.095399 0.408394 0.231838
0.101161 0.408498 0.232064
0.122294 0.408755 0.232998
0.155633 0.409279 0.234856
0.196501 0.410080 0.237794
0.242215 0.411299 0.241842
0.291463 0.412825 0.247077
0.343876 0.414730 0.253452
0.399091 0.417132 0.260875
0.456836 0.419857 0.269384
0.516717 0.423079 0.278749
0.578505 0.426777 0.289023
0.641835 0.430802 0.299987
0.706668 0.435365 0.311623
0.771964 0.440285 0.323775
0.837164 0.445667 0.336450
0.112447 0.474211 0.254260
0.117219 0.474233 0.254438
0.135534 0.474473 0.255230
0.165929 0.474881 0.256850
0.204590 0.475529 0.259386
0.248711 0.476470 0.262979
0.296896 0.477702 0.267553
0.348483 0.479257 0.273245
0.403168 0.481146 0.279869
0.460397 0.483378 0.287500
0.519839 0.485976 0.296025
0.581330 0.488928 0.305385
0.644438 0.492258 0.315480
0.709055 0.495928 0.326276
0.774092 0.500014 0.337590
0.839336 0.504464 0.349499
0.129844 0.539329 0.278029
0.133906 0.539399 0.278184
0.149933 0.539566 0.278878
0.177626 0.539882 0.280297
0.213998 0.540494 0.282529
0.256452 0.541203 0.285681
0.303358 0.542217 0.289702
0.354112 0.543559 0.294734
0.408041 0.545090 0.300644
0.464710 0.546938 0.307479
0.523773 0.549134 0.315180
0.584895 0.551550 0.323674
0.647607 0.554304 0.332907
0.711924 0.557448 0.342860
0.776721 0.560810 0.353328
0.842167 0.564615 0.364393
0.147565 0.604127 0.302747
0.151093 0.604149 0.302898
0.165271 0.604311 0.303504
0.190546 0.604582 0.304745
0.224680 0.605090 0.306704
0.265340 0.605731 0.309473
0.310908 0.606598 0.313042
0.360630 0.607680 0.317466
0.413780 0.608997 0.322760
0.469853 0.610602 0.328886
0.528323 0.612431 0.335821
0.589077 0.614533 0.343511
0.651441 0.616860 0.351956
0.715318 0.619531 0.361041
0.779881 0.622470 0.370732
0.845541 0.625641 0.380914
0.165607 0.668979 0.328072
0.168711 0.669013 0.328207
0.181390 0.669081 0.328762
0.204490 0.669399 0.329856
0.236481 0.669747 0.331562
0.275344 0.670251 0.334008
0.319523 0.670981 0.337187
0.368136 0.672018 0.341117
0.420390 0.673095 0.345837
0.475720 0.674524 0.351358
0.533627 0.676098 0.357585
0.593815 0.677956 0.364569
0.655768 0.680005 0.372244
0.719329 0.682309 0.380532
0.783414 0.684840 0.389296
0.849853 0.687721 0.398739
0.183975 0.734318 0.353812
0.186749 0.734391 0.353978
0.198171 0.734494 0.354391
0.219384 0.734626 0.355387
0.249379 0.735109 0.356873
0.286411 0.735583 0.359104
0.329191 0.736291 0.361910
0.376603 0.737121 0.365460
0.427939 0.738081 0.369661
0.482458 0.739263 0.374608
0.539637 0.740823 0.380244
0.599265 0.742382 0.386442
0.660735 0.744221 0.393395
0.723884 0.746291 0.400928
0.787525 0.748675 0.408967
0.855164 0.751178 0.417583
0.202632 0.800828 0.379729
0.205137 0.800862 0.379829
0.215495 0.800976 0.380210
0.235052 0.801218 0.381106
0.263180 0.801434 0.382451
0.298487 0.802029 0.384377
0.339812 0.802581 0.386873
0.385994 0.803405 0.390009
0.436287 0.804211 0.393787
0.489934 0.805439 0.398189
0.546460 0.806710 0.403221
0.605496 0.808164 0.408882
0.666346 0.809824 0.415134
0.728935 0.811656 0.421978
0.792175 0.813787 0.429324
0.861847 0.816119 0.437198
0.221634 0.869518 0.405571
0.223919 0.869554 0.405650
0.233411 0.869633 0.406023
0.251494 0.869796 0.406775
0.277903 0.870052 0.407972
0.311544 0.870579 0.409706
0.351418 0.871121 0.411934
0.396336 0.871795 0.414722
0.445566 0.872676 0.418130
0.498297 0.873678 0.422078
0.553974 0.874880 0.426573
0.612270 0.876236 0.431687
0.672600 0.877795 0.437356
0.734604 0.879556 0.443562
0.797312 0.881465 0.450266
0.870933 0.883617 0.457490
0.240886 0.940411 0.431096
0.242971 0.940448 0.431192
0.251696 0.940578 0.431520
0.268512 0.940681 0.432177
0.293362 0.940977 0.433291
0.325496 0.941340 0.434821
0.363882 0.941826 0.436801
0.407516 0.942553 0.439281
0.455616 0.943198 0.442363
0.507384 0.944186 0.445952
0.562255 0.945213 0.449995
0.619890 0.946419 0.454659
0.679511 0.947692 0.459728
0.741034 0.949205 0.465411
0.802896 0.950774 0.471519
0.883848 0.952517 0.478113
0.260454 0.988055 0.456428
0.262393 0.988069 0.456518
0.270461 0.988131 0.456782
0.286159 0.988140 0.457420
0.309590 0.988275 0.458381
0.340273 0.988322 0.459735
0.377266 0.988566 0.461566
0.419633 0.988729 0.463821
0.466527 0.988938 0.466548
0.517259 0.989345 0.469775
0.571296 0.989686 0.473454
0.628071 0.990067 0.477658
0.687068 0.990538 0.482332
0.747867 0.991148 0.487475
0.809169 0.991746 0.493108
0.908322 0.992664 0.499116
0.017252 0.029034 0.242516
0.042737 0.031438 0.242728
0.084481 0.039640 0.243598
0.129618 0.051408 0.245344
0.177250 0.064780 0.248080
0.227144 0.078884 0.251879
0.279176 0.093373 0.256797
0.333445 0.108054 0.262796
0.390091 0.122863 0.269889
0.448866 0.137747 0.277941
0.509601 0.152681 0.286906
0.572168 0.167653 0.296698
0.636109 0.182621 0.307226
0.701431 0.197672 0.318460
0.767294 0.212659 0.330227
0.832782 0.227675 0.342531
0.021649 0.072113 0.243211
0.044264 0.072823 0.243418
0.085132 0.075746 0.244265
0.130008 0.081230 0.246000
0.177533 0.089054 0.248714
0.227371 0.098747 0.252528
0.279333 0.109817 0.257431
0.333563 0.121877 0.263398
0.390212 0.134659 0.270446
0.449008 0.147947 0.278475
0.509646 0.161597 0.287423
0.572221 0.175541 0.297202
0.636177 0.189651 0.307716
0.701535 0.203966 0.318909
0.767300 0.218364 0.330636
0.832715 0.232897 0.342939
0.033444 0.138469 0.246086
0.050123 0.138749 0.246289
0.087889 0.139956 0.247109
0.131695 0.142360 0.248824
0.178740 0.146088 0.251506
0.228272 0.151175 0.255237
0.280069 0.157569 0.260053
0.334207 0.165128 0.265955
0.390722 0.173768 0.272896
0.449490 0.183328 0.280804
0.510102 0.193675 0.289642
0.572661 0.204703 0.299319
0.636557 0.216250 0.309705
0.701787 0.228322 0.320809
0.767546 0.240729 0.332441
0.832933 0.253505 0.344592
0.047849 0.206229 0.251767
0.059910 0.206391 0.251963
0.093177 0.207091 0.252784
0.135050 0.208501 0.254436
0.181132 0.210684 0.257008
0.230119 0.213780 0.260627
0.281571 0.217753 0.265300
0.335450 0.222638 0.271026
0.391829 0.228401 0.277748
0.450415 0.235034 0.285466
0.510966 0.242431 0.294069
0.573368 0.250601 0.303532
0.637244 0.259418 0.313706
0.702439 0.268883 0.324593
0.768109 0.278862 0.336016
0.833574 0.289347 0.348017
0.063297 0.274220 0.260458
0.072336 0.274335 0.260660
0.100952 0.274803 0.261426
0.140210 0.275719 0.262966
0.184874 0.277217 0.265431
0.233021 0.279335 0.268876
0.283958 0.282068 0.273328
0.337441 0.285491 0.278805
0.393542 0.289604 0.285255
0.451942 0.294377 0.292671
0.512324 0.299776 0.300969
0.574617 0.305896 0.310083
0.638346 0.312609 0.319935
0.703452 0.319900 0.330487
0.769031 0.327745 0.341614
0.834381 0.336096 0.353280
0.079366 0.341989 0.272089
0.086424 0.342052 0.272268
0.110915 0.342382 0.273003
0.147206 0.343080 0.274437
0.190079 0.344150 0.276760
0.237108 0.345671 0.279964
0.287230 0.347679 0.284151
0.340281 0.350203 0.289305
0.396022 0.353242 0.295418
0.454101 0.356798 0.302448
0.514231 0.360870 0.310316
0.576377 0.365542 0.319028
0.639923 0.370676 0.328488
0.704883 0.376372 0.338604
0.770412 0.382488 0.349313
0.835642 0.389132 0.360621
0.095906 0.408589 0.286412
0.101622 0.408660 0.286535
0.122673 0.408955 0.287213
0.155921 0.409489 0.288582
0.196717 0.410292 0.290687
0.242384 0.411421 0.293692
0.291599 0.412973 0.297576
0.344010 0.414912 0.302388
0.399219 0.417303 0.308076
0.456937 0.420003 0.314669
0.516751 0.423266 0.322075
0.578558 0.426893 0.330302
0.641940 0.430978 0.339256
0.706677 0.435488 0.348920
0.772056 0.440434 0.359132
0.837223 0.445819 0.369933
0.112852 0.474342 0.302998
0.117614 0.474384 0.303148
0.135870 0.474610 0.303749
0.166187 0.475021 0.304984
0.204788 0.475679 0.306949
0.248908 0.476606 0.309669
0.297024 0.477849 0.313245
0.348615 0.479402 0.317699
