res/luts/CoolLookUp.cube
LUT_3D_SIZE 6
0.000000 0.000000 0.000000
0.129044 0.045513 0.057094
0.278912 0.090960 0.113263
0.448735 0.136383 0.168524
0.636043 0.181736 0.222802
0.832628 0.227020 0.276130
0.045901 0.205441 0.094145
0.134505 0.207709 0.104774
0.281287 0.217055 0.138588
0.450270 0.234389 0.183919
0.637117 0.258869 0.233254
0.833417 0.288876 0.283761
0.095097 0.408307 0.185733
0.155469 0.409174 0.189901
0.291391 0.412730 0.206365
0.456771 0.419737 0.234730
0.641816 0.430718 0.271487
0.837171 0.445580 0.313164
0.147380 0.604061 0.274716
0.190400 0.604535 0.277029
0.310832 0.606514 0.286625
0.469772 0.610520 0.304684
0.651388 0.616801 0.330417
0.845469 0.625608 0.362305
0.202527 0.800854 0.360952
0.234961 0.801181 0.362451
0.339737 0.802545 0.368753
0.489900 0.805378 0.381056
0.666324 0.809762 0.399329
0.861764 0.816057 0.422865
0.260377 0.988030 0.443327
0.286067 0.988115 0.444308
0.377177 0.988542 0.448719
0.517240 0.989313 0.457360
0.687012 0.990512 0.470601
0.908053 0.992625 0.488153
0.017252 0.029034 0.242516
0.129618 0.051408 0.245344
0.279176 0.093373 0.256797
0.448866 0.137747 0.277941
0.636109 0.182621 0.307226
0.832782 0.227675 0.342531
0.047849 0.206229 0.251767
0.135050 0.208501 0.254436
0.281571 0.217753 0.265300
0.450415 0.235034 0.285466
0.637244 0.259418 0.313706
0.833574 0.289347 0.348017
0.095906 0.408589 0.286412
0.155921 0.409489 0.288582
0.291599 0.412973 0.297576
0.456937 0.420003 0.314669
0.641940 0.430978 0.339256
0.837223 0.445819 0.369933
0.147862 0.604235 0.341526
0.190753 0.604679 0.343182
0.311060 0.606659 0.350074
0.469919 0.610681 0.363472
0.651563 0.616911 0.383209
0.845659 0.625822 0.408478
0.202860 0.800897 0.407455
0.235242 0.801319 0.408603
0.339913 0.802681 0.413775
0.490019 0.805515 0.423785
0.666435 0.809925 0.438941
0.861953 0.816220 0.458925
0.260645 0.988103 0.476572
0.286331 0.988181 0.477502
0.377399 0.988501 0.481297
0.517372 0.989321 0.488813
0.687061 0.990581 0.500463
0.908887 0.992626 0.516140
0.035010 0.058038 0.464573
0.131973 0.069796 0.465602
0.280207 0.102739 0.469575
0.449559 0.143406 0.477537
0.636620 0.186482 0.489699
0.833015 0.230544 0.506002
0.055233 0.209497 0.467786
0.137314 0.211684 0.468699
0.282595 0.220760 0.472689
0.451095 0.237738 0.480519
0.637698 0.261791 0.492538
0.833826 0.291384 0.508679
0.099263 0.409839 0.480897
0.157851 0.410658 0.481809
0.292608 0.414209 0.485567
0.457583 0.421200 0.492966
0.642454 0.432087 0.504414
0.837612 0.446870 0.519815
0.149919 0.604920 0.505545
0.192305 0.605388 0.506346
0.312010 0.607344 0.509744
0.470563 0.611315 0.516509
0.651956 0.617667 0.526929
0.845999 0.626412 0.541060
0.204286 0.801479 0.540458
0.236469 0.801698 0.541147
0.340783 0.803097 0.544111
0.490619 0.805960 0.549983
0.666850 0.810302 0.559228
0.862528 0.816626 0.571724
0.261749 0.988209 0.583135
0.287318 0.988340 0.583704
0.378148 0.988694 0.586226
0.517921 0.989438 0.591294
0.687619 0.990670 0.599151
0.911018 0.992779 0.609955
0.053268 0.087021 0.655077
0.136670 0.094236 0.655536
0.282314 0.118791 0.657489
0.450888 0.154012 0.661434
0.637529 0.193995 0.667541
0.833798 0.236157 0.676046
0.067294 0.215916 0.656614
0.141796 0.218014 0.657110
0.284666 0.226742 0.659017
0.452426 0.243150 0.662896
0.638650 0.266515 0.668983
0.834611 0.295435 0.677492
0.105690 0.412301 0.663079
0.161712 0.413080 0.663536
0.294619 0.416594 0.665384
0.458901 0.423561 0.669148
0.643408 0.434322 0.675203
0.838474 0.449018 0.683445
0.153983 0.606281 0.675754
0.195425 0.606717 0.676165
0.313898 0.608712 0.678018
0.471881 0.612695 0.681655
0.652840 0.618956 0.687380
0.846996 0.627730 0.695342
0.207189 0.802314 0.694995
0.238981 0.802741 0.695377
0.342535 0.804158 0.697118
0.491922 0.806797 0.700503
0.667824 0.811328 0.705913
0.863894 0.817605 0.713340
0.263973 0.988498 0.720404
0.289339 0.988526 0.720719
0.379730 0.988874 0.722319
0.519120 0.989741 0.725518
0.688434 0.991021 0.730481
0.917157 0.993367 0.737449
0.072007 0.115978 0.821293
0.143804 0.120924 0.821628
0.285608 0.139457 0.822860
0.453047 0.169098 0.825255
0.639171 0.205193 0.829151
0.835079 0.244769 0.834599
0.082329 0.225625 0.822348
0.148673 0.227614 0.822528
0.287981 0.235859 0.823796
0.454570 0.251422 0.826153
0.640188 0.273826 0.830078
0.835888 0.301794 0.835504
0.115111 0.416137 0.826319
0.167657 0.416933 0.826609
0.297802 0.420375 0.827746
0.461047 0.427241 0.830173
0.644972 0.437914 0.834072
0.839776 0.452418 0.839405
0.160266 0.608438 0.834367
0.200290 0.608894 0.834649
0.316897 0.610888 0.835812
0.473933 0.614836 0.838220
0.654422 0.621074 0.842005
0.848377 0.629763 0.847304
0.211796 0.803957 0.847084
0.242924 0.804167 0.847256
0.345297 0.805559 0.848476
0.493859 0.808316 0.850808
0.669393 0.812899 0.854503
0.865964 0.819079 0.859731
0.267561 0.988932 0.864635
0.292604 0.988960 0.864892
0.382260 0.989297 0.866010
0.521053 0.990165 0.868267
0.689911 0.991396 0.871903
0.944383 0.995553 0.876978
0.091219 0.144917 0.985881
0.153294 0.148587 0.985981
0.290277 0.162984 0.986641
0.456049 0.187741 0.987811
0.641306 0.219771 0.989518
0.836702 0.256333 0.991783
0.099220 0.238498 0.986356
0.157826 0.240339 0.986452
0.292601 0.247985 0.987038
0.457573 0.262569 0.988285
0.642446 0.283756 0.989991
0.837602 0.310500 0.992128
0.127111 0.421536 0.988326
0.175722 0.422336 0.988406
0.302272 0.425736 0.988877
0.464024 0.432483 0.990011
0.647082 0.442948 0.991571
0.841545 0.457184 0.993541
0.168713 0.611509 0.991706
0.206981 0.611945 0.991765
0.321088 0.613928 0.992256
0.476824 0.617850 0.993151
0.656610 0.624051 0.994491
0.850652 0.632633 0.996023
0.218113 0.806127 0.995927
0.248406 0.806336 0.996042
0.349191 0.807718 0.996314
0.496640 0.810533 0.996884
0.671482 0.814926 0.997718
0.868957 0.821235 0.998735
0.272519 0.989455 0.999440
0.297167 0.989532 0.999367
0.385809 0.989983 0.999537
0.523684 0.990766 0.999728
0.691962 0.992180 0.999911
0.999345 0.999949 1.000038
