res/luts/PurpleGreenLookUp.cube
LUT_3D_SIZE 6
0.000000 0.000000 0.000000
0.125875 0.045520 0.249290
0.237439 0.121516 0.470517
0.318206 0.215823 0.631255
0.363844 0.324403 0.723253
0.379748 0.445048 0.757778
0.202069 0.093145 0.400362
0.222159 0.108623 0.440216
0.278592 0.162571 0.552322
0.334583 0.245148 0.664035
0.368957 0.346969 0.733860
0.380323 0.463339 0.759456
0.336326 0.248661 0.667554
0.340202 0.256843 0.675347
0.353539 0.289987 0.702178
0.369597 0.350254 0.735084
0.379253 0.433972 0.756387
0.380325 0.536624 0.762320
0.379578 0.441693 0.757329
0.379846 0.447208 0.757940
0.380465 0.470325 0.759985
0.380555 0.515025 0.761895
0.379547 0.581380 0.762722
0.378744 0.667513 0.765627
0.378724 0.663837 0.765420
0.378748 0.668012 0.765666
0.378907 0.685604 0.766952
0.379595 0.720563 0.770414
0.381953 0.774150 0.778379
0.387501 0.845974 0.794107
0.394959 0.910261 0.812764
0.395424 0.913315 0.813601
0.397348 0.925038 0.816802
0.401541 0.944587 0.820955
0.408889 0.966639 0.822553
0.421329 0.987224 0.819375
0.081546 0.024063 0.161484
0.141352 0.054091 0.279952
0.242541 0.126068 0.480666
0.320082 0.218924 0.634991
0.364422 0.326730 0.724497
0.379828 0.446864 0.758008
0.209364 0.098581 0.414787
0.228137 0.113534 0.452050
0.281830 0.166307 0.558759
0.335997 0.247980 0.666901
0.369354 0.349202 0.734696
0.380342 0.465133 0.759619
0.337696 0.251475 0.670228
0.341460 0.259590 0.677847
0.354381 0.292441 0.704005
0.369985 0.352464 0.736061
0.379319 0.435899 0.756681
0.380287 0.538341 0.762344
0.379660 0.443614 0.757591
0.379911 0.449085 0.758173
0.380508 0.472086 0.760119
0.380533 0.516727 0.761939
0.379506 0.582897 0.762743
0.378755 0.668979 0.765732
0.378731 0.665273 0.765460
0.378759 0.669423 0.765767
0.378931 0.686918 0.767079
0.379611 0.721733 0.770594
0.382013 0.775330 0.778614
0.387651 0.847166 0.794375
0.395123 0.911346 0.813033
0.395544 0.914344 0.813917
0.397507 0.925881 0.816989
0.401735 0.945276 0.821087
0.409124 0.967119 0.822531
0.421645 0.987440 0.819295
0.158537 0.064237 0.314019
0.188373 0.083457 0.373170
0.261677 0.144409 0.518675
0.327549 0.231788 0.649913
0.366741 0.336540 0.729296
0.380107 0.454841 0.758721
0.235523 0.119853 0.466757
0.250109 0.133071 0.495678
0.294424 0.181694 0.583783
0.341548 0.259818 0.678041
0.371108 0.358610 0.738388
0.380527 0.472919 0.760182
0.343055 0.263179 0.681028
0.346376 0.271052 0.687748
0.357855 0.303093 0.711083
0.371686 0.361789 0.739512
0.379683 0.443993 0.757637
0.380200 0.545240 0.762328
0.379976 0.451535 0.758462
0.380162 0.457016 0.758948
0.380562 0.479781 0.760556
0.380513 0.523924 0.762105
0.379372 0.589520 0.762845
0.378773 0.675018 0.766110
0.378736 0.671344 0.765919
0.378779 0.675482 0.766153
0.378969 0.693067 0.767618
0.379855 0.727542 0.771300
0.382353 0.780749 0.779598
0.388145 0.852252 0.795694
0.395774 0.915587 0.814246
0.396181 0.918416 0.815044
0.398186 0.929539 0.817892
0.402458 0.948082 0.821447
0.409895 0.969038 0.822493
0.423159 0.988720 0.819076
0.228801 0.114088 0.453363
0.244368 0.127730 0.484285
0.291038 0.177435 0.577112
0.340026 0.256463 0.675002
0.370648 0.355952 0.737396
0.380474 0.470694 0.760009
0.273197 0.156553 0.541560
0.283003 0.167667 0.561104
0.314807 0.210460 0.624451
0.350948 0.282780 0.696938
0.374018 0.377155 0.744550
0.380629 0.488291 0.761051
0.352126 0.285998 0.699383
0.354715 0.293390 0.704630
0.363739 0.323861 0.722941
0.374420 0.380291 0.745402
0.380207 0.460097 0.759151
0.379928 0.559331 0.762475
0.380414 0.467480 0.759819
0.380524 0.472784 0.760173
0.380655 0.495077 0.761273
0.380286 0.538319 0.762344
0.379155 0.602833 0.762991
0.378931 0.686934 0.767080
0.378868 0.683415 0.766750
0.378944 0.687585 0.767144
0.379235 0.705008 0.768726
0.380224 0.739147 0.772889
0.383047 0.791725 0.781692
0.389242 0.862584 0.798522
0.397099 0.923699 0.816438
0.397568 0.926284 0.817062
0.399640 0.936401 0.819450
0.404020 0.953239 0.822066
0.411583 0.972504 0.822163
0.426835 0.991180 0.818620
0.286211 0.171482 0.567471
0.294615 0.181940 0.584198
0.322393 0.222795 0.639643
0.354536 0.292880 0.704267
0.375064 0.385492 0.746904
0.380655 0.495312 0.761285
0.311360 0.205208 0.617621
0.317384 0.214523 0.629604
0.337722 0.251529 0.670288
0.361917 0.317046 0.719317
0.377230 0.405631 0.751614
0.380588 0.512351 0.761821
0.362725 0.319987 0.720912
0.364461 0.326843 0.724511
0.370528 0.355241 0.737127
0.377455 0.408539 0.752190
0.380601 0.485056 0.760875
0.379551 0.581201 0.762719
0.380649 0.492202 0.761144
0.380655 0.497339 0.761374
0.380502 0.518838 0.761992
0.379922 0.560863 0.762491
0.378908 0.623670 0.763526
0.379273 0.706183 0.768868
0.379159 0.702558 0.768547
0.379261 0.706623 0.768911
0.379690 0.723477 0.770834
0.381050 0.757381 0.775520
0.384298 0.809156 0.785298
0.391032 0.878899 0.803149
0.399355 0.935114 0.819143
0.399825 0.937370 0.819656
0.401967 0.946097 0.821134
0.406457 0.960615 0.822545
0.414228 0.977535 0.821469
0.435750 0.995048 0.818455
0.329435 0.235257 0.653751
0.333889 0.243743 0.662618
0.349121 0.277935 0.693240
0.367447 0.339769 0.730652
0.378706 0.425012 0.755063
0.380448 0.528899 0.762194
0.342967 0.263018 0.680869
0.346322 0.270878 0.687593
0.357806 0.302917 0.710980
0.371653 0.361707 0.739429
0.379677 0.443878 0.757627
0.380203 0.545157 0.762327
0.372077 0.364343 0.740419
0.373078 0.370717 0.742538
0.376358 0.396852 0.749675
0.379815 0.446655 0.757979
0.380499 0.519065 0.761998
0.379036 0.611386 0.763209
0.380478 0.525880 0.762139
0.380409 0.530849 0.762229
0.380084 0.551413 0.762391
0.379342 0.591732 0.762882
0.378709 0.652441 0.764785
0.380014 0.732792 0.771993
0.379897 0.729261 0.771549
0.380036 0.733160 0.772057
0.380687 0.749641 0.774356
0.382438 0.782520 0.779883
0.386346 0.833291 0.790925
0.393821 0.901782 0.810217
0.402690 0.948708 0.821568
0.403177 0.950578 0.821822
0.405419 0.957625 0.822445
0.410175 0.969581 0.822447
0.418398 0.984028 0.820100
0.996578 1.000029 0.998449
