res/luts/PurpleGreenLookUp.cube
LUT_3D_SIZE 16
0.000000 0.000000 0.000000
0.043189 0.009602 0.085504
0.085154 0.025630 0.168612
0.125875 0.045520 0.249290
0.165300 0.068423 0.327459
0.203042 0.093848 0.402261
0.237439 0.121516 0.470517
0.268200 0.151166 0.531616
0.295163 0.182651 0.585269
0.318206 0.215823 0.631255
0.337244 0.250567 0.669404
0.352436 0.286828 0.700010
0.363844 0.324403 0.723253
0.371957 0.363437 0.740083
0.377067 0.403540 0.751222
0.379748 0.445048 0.757778
0.070935 0.019648 0.140443
0.078846 0.022910 0.156125
0.103885 0.034288 0.205724
0.137142 0.051703 0.271597
0.172827 0.073187 0.342369
0.208226 0.097707 0.412539
0.241097 0.124767 0.477796
0.270809 0.153966 0.536859
0.297048 0.185096 0.589033
0.319547 0.218035 0.633933
0.338198 0.252530 0.671302
0.353079 0.288646 0.701283
0.364282 0.326026 0.724053
0.372187 0.364910 0.740541
0.377141 0.404997 0.751455
0.379799 0.446374 0.757949
0.138463 0.052447 0.274225
0.141491 0.054171 0.280223
0.153436 0.061156 0.303890
0.173903 0.073870 0.344476
0.199859 0.091527 0.395911
0.227703 0.113166 0.451184
0.255261 0.138018 0.505916
0.281175 0.165545 0.557426
0.304589 0.195365 0.604076
0.324981 0.227224 0.644795
0.342024 0.260841 0.678954
0.355674 0.296224 0.706515
0.365963 0.333069 0.727518
0.373199 0.371404 0.742744
0.377693 0.410985 0.752665
0.379998 0.451975 0.758514
0.202069 0.093145 0.400362
0.203644 0.094301 0.403427
0.210177 0.099195 0.416417
0.222159 0.108623 0.440216
0.238676 0.122611 0.472976
0.258045 0.140764 0.511465
0.278592 0.162571 0.552322
0.298839 0.187508 0.592638
0.317774 0.215137 0.630380
0.334583 0.245148 0.664035
0.348852 0.277266 0.692751
0.360289 0.311262 0.715998
0.368957 0.346969 0.733860
0.374975 0.384364 0.746569
0.378588 0.423112 0.754829
0.380323 0.463339 0.759456
0.257291 0.140011 0.509942
0.258184 0.140897 0.511749
0.261892 0.144620 0.519058
0.268971 0.151983 0.533173
0.279192 0.163258 0.553524
0.291854 0.178439 0.578689
0.305893 0.197222 0.606691
0.320332 0.219306 0.635499
0.334201 0.244375 0.663267
0.346786 0.272071 0.688601
0.357525 0.302116 0.710446
0.366265 0.334352 0.728130
0.372756 0.368432 0.741788
0.377147 0.404423 0.751322
0.379594 0.441925 0.757363
0.380581 0.481034 0.760631
0.302224 0.192078 0.599373
0.302721 0.192756 0.600385
0.304887 0.195790 0.604658
0.309082 0.201794 0.613010
0.315270 0.211159 0.625359
0.323105 0.223962 0.641042
0.332072 0.240202 0.658980
0.341467 0.259609 0.677864
0.350696 0.282122 0.696469
0.359145 0.307444 0.713686
0.366423 0.335210 0.728684
0.372256 0.365364 0.740708
0.376472 0.397605 0.749875
0.379120 0.431812 0.756153
0.380423 0.467785 0.759845
0.380623 0.505494 0.761683
0.336326 0.248661 0.667554
0.336632 0.249261 0.668140
0.337838 0.251760 0.670538
0.340202 0.256843 0.675347
0.343767 0.264793 0.682460
0.348277 0.275814 0.691613
0.353539 0.289987 0.702178
0.359120 0.307162 0.713558
0.364599 0.327317 0.724707
0.369597 0.350254 0.735084
0.373801 0.375820 0.744131
0.377098 0.403784 0.751277
0.379253 0.433972 0.756387
0.380380 0.466334 0.759726
0.380648 0.500549 0.761507
0.380325 0.536624 0.762320
0.359774 0.309305 0.714917
0.359885 0.309847 0.715144
0.360524 0.312017 0.716467
0.361716 0.316399 0.718945
0.363577 0.323283 0.722655
0.365922 0.332962 0.727541
0.368647 0.345437 0.733173
0.371473 0.360738 0.739147
0.374235 0.378873 0.745045
0.376665 0.399705 0.750314
0.378586 0.423098 0.754827
0.379907 0.449018 0.758166
0.380519 0.477154 0.760486
0.380608 0.507554 0.761682
0.380250 0.539889 0.762260
0.379620 0.574257 0.762638
0.373529 0.373807 0.743466
0.373591 0.374253 0.743618
0.373835 0.376175 0.744211
0.374400 0.379994 0.745351
0.375163 0.386086 0.747063
0.376150 0.394599 0.749180
0.377241 0.405721 0.751634
0.378367 0.419502 0.754249
0.379316 0.435845 0.756673
0.380106 0.454828 0.758720
0.380504 0.476319 0.760426
0.380649 0.500277 0.761496
0.380467 0.526507 0.762150
0.380016 0.555002 0.762429
0.379437 0.585496 0.762781
0.379002 0.618083 0.763402
0.379578 0.441693 0.757329
0.379603 0.442076 0.757383
0.379670 0.443766 0.757613
0.379846 0.447208 0.757940
0.380031 0.452678 0.758586
0.380215 0.460333 0.759172
0.380465 0.470325 0.759985
0.380603 0.482745 0.760738
0.380655 0.497672 0.761388
0.380555 0.515025 0.761895
0.380325 0.534787 0.762293
0.379964 0.556985 0.762450
0.379547 0.581380 0.762722
0.379079 0.608071 0.763119
0.378765 0.636751 0.764056
0.378744 0.667513 0.765627
0.380583 0.512788 0.761833
0.380579 0.513126 0.761843
0.380560 0.514646 0.761885
0.380518 0.517728 0.761965
0.380534 0.522694 0.762079
0.380434 0.529626 0.762208
0.380277 0.538728 0.762244
0.380120 0.549993 0.762375
0.379843 0.563697 0.762521
0.379566 0.579659 0.762706
0.379270 0.597897 0.762893
0.378995 0.618536 0.763417
0.378764 0.641275 0.764164
0.378736 0.666273 0.765532
0.378971 0.693127 0.767624
0.379633 0.722317 0.770664
0.379439 0.586952 0.762803
0.379431 0.587258 0.762808
0.379393 0.588687 0.762831
0.379348 0.591497 0.762878
0.379291 0.595979 0.762855
0.379166 0.602306 0.762980
0.379052 0.610641 0.763187
0.378950 0.621088 0.763502
0.378799 0.633583 0.763910
0.378722 0.648371 0.764540
0.378731 0.665293 0.765461
0.378885 0.684463 0.766836
0.379257 0.705720 0.768809
0.379890 0.729109 0.771528
0.380912 0.754449 0.775092
0.382379 0.781903 0.779837
0.378724 0.663837 0.765420
0.378725 0.664220 0.765380
0.378732 0.665408 0.765469
0.378748 0.668012 0.765666
0.378743 0.672081 0.765983
0.378812 0.677998 0.766367
0.378907 0.685604 0.766952
0.379022 0.695243 0.767843
0.379269 0.706886 0.768939
0.379595 0.720563 0.770414
0.380140 0.736337 0.772433
0.380889 0.754180 0.775031
0.381953 0.774150 0.778379
0.383347 0.796166 0.782529
0.385209 0.819979 0.787689
0.387501 0.845974 0.794107
0.380452 0.743592 0.773514
0.380445 0.744009 0.773569
0.380520 0.745208 0.773668
0.380578 0.747631 0.774067
0.380769 0.751235 0.774638
0.381046 0.756778 0.775503
0.381394 0.763910 0.776633
0.381869 0.772864 0.778123
0.382511 0.783660 0.780107
0.383372 0.796373 0.782588
0.384460 0.811128 0.785693
0.385834 0.827736 0.789574
0.387586 0.846498 0.794170
0.389705 0.867093 0.799799
0.392293 0.889728 0.806410
0.395471 0.913490 0.813672
0.385671 0.825814 0.789053
0.385682 0.826099 0.789119
0.385801 0.827257 0.789426
0.385986 0.829433 0.789953
0.386301 0.832959 0.790853
0.386785 0.837993 0.792067
0.387432 0.844634 0.793712
0.388210 0.852992 0.795909
0.389267 0.863052 0.798674
0.390592 0.875074 0.802066
0.392199 0.888890 0.806170
0.394161 0.904537 0.810985
0.396466 0.920094 0.815550
0.399268 0.934821 0.819074
0.402557 0.948307 0.821487
0.406342 0.960196 0.822527
0.394959 0.910261 0.812764
0.395004 0.910440 0.812836
0.395138 0.911373 0.813056
0.395424 0.913315 0.813601
0.395816 0.916189 0.814420
0.396470 0.920114 0.815555
0.397348 0.925038 0.816802
0.398449 0.930923 0.818255
0.399860 0.937437 0.819681
0.401541 0.944587 0.820955
0.403607 0.951991 0.821900
0.406056 0.959366 0.822487
0.408889 0.966639 0.822553
0.412215 0.973789 0.822013
0.416022 0.980608 0.820885
0.421329 0.987224 0.819375
0.027680 0.005077 0.054796
0.048693 0.011411 0.096399
0.087330 0.026589 0.172924
0.127084 0.046163 0.251676
0.166082 0.068910 0.328991
0.203581 0.094262 0.403334
0.237806 0.121840 0.471256
0.268471 0.151451 0.532191
0.295343 0.182887 0.585669
0.318351 0.216070 0.631530
0.337339 0.250760 0.669557
0.352478 0.287005 0.700098
0.363880 0.324553 0.723384
0.371957 0.363557 0.740075
0.377086 0.403726 0.751257
0.379727 0.445154 0.757792
0.073764 0.020794 0.146045
0.081275 0.023946 0.160938
0.105511 0.035076 0.208938
0.138195 0.052297 0.273695
0.173561 0.073655 0.343803
0.208760 0.098115 0.413572
0.241457 0.125098 0.478509
0.271073 0.154249 0.537336
0.297235 0.185373 0.589442
0.319685 0.218245 0.634192
0.338272 0.252715 0.671501
0.353113 0.288781 0.701352
0.364347 0.326205 0.724131
0.372223 0.365074 0.740632
0.377159 0.405088 0.751488
0.379806 0.446500 0.757965
0.139496 0.053035 0.276279
0.142499 0.054746 0.282221
0.154313 0.061687 0.305652
0.174603 0.074335 0.345886
0.200412 0.091942 0.397082
0.228128 0.113527 0.452036
0.255568 0.138326 0.506527
0.281410 0.165812 0.557878
0.304777 0.195632 0.604444
0.325109 0.227455 0.645025
0.342133 0.261072 0.679148
0.355744 0.296431 0.706622
0.365981 0.333207 0.727633
0.373237 0.371596 0.742841
0.377710 0.411126 0.752697
0.380005 0.452119 0.758528
0.202622 0.093547 0.401409
0.204203 0.094711 0.404549
0.210677 0.099576 0.417392
0.222608 0.108977 0.441070
0.239051 0.122938 0.473724
0.258351 0.141061 0.512040
0.278826 0.162834 0.552771
0.299035 0.187739 0.592989
0.317919 0.215376 0.630684
0.334706 0.245344 0.664240
0.348931 0.277410 0.692886
0.360355 0.311499 0.716088
0.368984 0.347146 0.733891
0.374978 0.384544 0.746539
0.378601 0.423234 0.754855
0.380328 0.463482 0.759468
0.257598 0.140309 0.510575
0.258479 0.141191 0.512319
0.262176 0.144912 0.519657
0.269226 0.152259 0.533716
0.279438 0.163527 0.553973
0.292036 0.178675 0.579093
0.306067 0.197437 0.607012
0.320471 0.219522 0.635765
0.334295 0.244583 0.663500
0.346857 0.272229 0.688706
0.357609 0.302286 0.710487
0.366294 0.334521 0.728274
0.372757 0.368630 0.741784
0.377166 0.404555 0.751355
0.379602 0.442075 0.757381
0.380582 0.481135 0.760637
0.302393 0.192295 0.599725
0.302916 0.193026 0.600735
0.305074 0.196020 0.605020
0.309224 0.202045 0.613345
0.315383 0.211350 0.625623
0.323220 0.224196 0.641283
0.332166 0.240408 0.659170
0.341585 0.259861 0.678025
0.350792 0.282350 0.696600
0.359222 0.307613 0.713870
0.366481 0.335379 0.728741
0.372293 0.365513 0.740801
0.376493 0.397749 0.749913
0.379135 0.432011 0.756184
0.380428 0.467952 0.759788
0.380622 0.505630 0.761688
0.336432 0.248874 0.667769
0.336720 0.249446 0.668303
0.337942 0.252006 0.670789
0.340263 0.257012 0.675476
0.343816 0.264947 0.682609
0.348365 0.275997 0.691707
0.353584 0.290121 0.702335
0.359174 0.307348 0.713674
0.364634 0.327509 0.724820
0.369644 0.350450 0.735202
0.373829 0.375943 0.744108
0.377079 0.403918 0.751311
0.379267 0.434171 0.756416
0.380383 0.466451 0.759730
0.380648 0.500677 0.761512
0.380322 0.536726 0.762322
0.359778 0.309516 0.714900
0.359960 0.310043 0.715249
0.360595 0.312223 0.716563
0.361757 0.316568 0.719020
0.363628 0.323490 0.722768
0.365981 0.333132 0.727561
0.368689 0.345585 0.733275
0.371506 0.360879 0.739139
0.374265 0.378980 0.745026
0.376662 0.399835 0.750354
0.378600 0.423220 0.754853
0.379914 0.449164 0.758182
0.380521 0.477259 0.760386
0.380606 0.507688 0.761686
0.380247 0.540001 0.762261
0.379617 0.574363 0.762640
0.373567 0.373952 0.743466
0.373623 0.374422 0.743605
0.373866 0.376303 0.744295
0.374430 0.380152 0.745330
0.375171 0.386228 0.747048
0.376172 0.394783 0.749220
0.377259 0.405846 0.751666
0.378382 0.419633 0.754277
0.379326 0.435997 0.756695
0.380112 0.454957 0.758733
0.380506 0.476428 0.760434
0.380649 0.500405 0.761501
0.380465 0.526597 0.762152
0.380014 0.555073 0.762430
0.379435 0.585590 0.762782
0.379001 0.618119 0.763404
0.379586 0.441810 0.757348
0.379610 0.442198 0.757397
0.379678 0.443901 0.757630
0.379856 0.447370 0.757963
0.380037 0.452788 0.758601
0.380220 0.460434 0.759184
0.380468 0.470438 0.759994
0.380605 0.482942 0.760749
0.380655 0.497793 0.761393
0.380554 0.515158 0.761899
0.380322 0.534909 0.762295
0.379960 0.557119 0.762452
0.379543 0.581493 0.762723
0.379076 0.608188 0.763122
0.378764 0.636799 0.764058
0.378745 0.667613 0.765631
0.380582 0.512875 0.761836
0.380578 0.513227 0.761846
0.380559 0.514764 0.761889
0.380517 0.517845 0.761968
0.380532 0.522799 0.762081
0.380431 0.529756 0.762210
0.380274 0.538838 0.762245
0.380116 0.550210 0.762377
0.379841 0.563778 0.762522
0.379563 0.579763 0.762708
0.379267 0.598037 0.762896
0.378994 0.618572 0.763418
0.378763 0.641321 0.764166
0.378737 0.666335 0.765536
0.378972 0.693196 0.767631
0.379634 0.722380 0.770657
0.379437 0.587045 0.762805
0.379428 0.587380 0.762810
0.379391 0.588781 0.762832
0.379345 0.591597 0.762880
0.379288 0.596099 0.762857
0.379164 0.602446 0.762982
0.379048 0.610780 0.763192
0.378948 0.621234 0.763508
0.378797 0.633825 0.763920
0.378721 0.648563 0.764550
0.378731 0.665355 0.765465
0.378888 0.684634 0.766852
0.379259 0.705780 0.768815
0.379898 0.729313 0.771554
0.380919 0.754566 0.775110
0.382389 0.782013 0.779861
0.378724 0.663963 0.765429
0.378726 0.664282 0.765384
0.378732 0.665581 0.765478
0.378748 0.668073 0.765670
0.378745 0.672263 0.765998
0.378813 0.678054 0.766371
0.378910 0.685832 0.766968
0.379027 0.695391 0.767861
0.379275 0.707032 0.768960
0.379602 0.720637 0.770438
0.380146 0.736339 0.772449
0.380897 0.754308 0.775051
0.381962 0.774197 0.778403
0.383358 0.796209 0.782555
0.385222 0.820079 0.787718
0.387517 0.846062 0.794141
0.380431 0.743784 0.773533
0.380451 0.744117 0.773587
0.380527 0.745324 0.773687
0.380585 0.747609 0.774086
0.380777 0.751363 0.774658
0.381013 0.756797 0.775425
0.381402 0.764039 0.776654
0.381878 0.772892 0.778145
0.382521 0.783775 0.780131
0.383338 0.796450 0.782608
0.384472 0.811261 0.785722
0.385848 0.827871 0.789605
0.387594 0.846566 0.794187
0.389723 0.867233 0.799812
0.392313 0.889824 0.806423
0.395447 0.913620 0.813705
0.385684 0.825911 0.789084
0.385696 0.826196 0.789150
0.385815 0.827317 0.789457
0.386000 0.829568 0.789965
0.386316 0.833053 0.790859
0.386800 0.838129 0.792100
0.387399 0.844723 0.793745
0.388218 0.853056 0.795925
0.389285 0.863190 0.798680
0.390598 0.875122 0.802078
0.392218 0.888982 0.806126
0.394142 0.904489 0.810971
0.396467 0.920099 0.815552
0.399275 0.934849 0.819079
0.402551 0.948287 0.821485
0.406370 0.960180 0.822529
0.394980 0.910392 0.812799
0.394990 0.910572 0.812872
0.395130 0.911503 0.813091
0.395426 0.913327 0.813604
0.395825 0.916173 0.814433
0.396471 0.920119 0.815556
0.397371 0.925083 0.816828
0.398473 0.930958 0.818277
0.399885 0.937535 0.819699
0.401567 0.944678 0.820968
0.403634 0.951990 0.821909
0.406084 0.959438 0.822490
0.408919 0.966702 0.822551
0.412248 0.973845 0.822007
0.416055 0.980657 0.820876
0.421366 0.987268 0.819367
0.054862 0.013550 0.108625
0.065748 0.017599 0.130168
0.095826 0.030455 0.189755
0.132052 0.048880 0.261544
0.169392 0.070988 0.335513
0.205834 0.095923 0.407796
0.239405 0.123254 0.474430
0.269603 0.152661 0.534399
0.296190 0.183973 0.587338
0.318912 0.217008 0.632648
0.337767 0.251631 0.670434
0.352762 0.287755 0.700619
0.364064 0.325277 0.723633
0.372044 0.364222 0.740428
0.377131 0.404320 0.751293
0.379762 0.445725 0.757867
0.084353 0.025278 0.167029
0.090622 0.028070 0.179438
0.112053 0.038324 0.221888
0.142576 0.054793 0.282387
0.176623 0.075638 0.349879
0.210876 0.099728 0.417785
0.242976 0.126458 0.481533
0.272172 0.155445 0.539521
0.298027 0.186413 0.590990
0.320244 0.219189 0.635302
0.338694 0.253595 0.672279
0.353436 0.289588 0.701978
0.364488 0.326912 0.724574
0.372340 0.365743 0.740825
0.377241 0.405722 0.751635
0.379838 0.447061 0.758031
0.143821 0.055512 0.284861
0.146699 0.057174 0.290531
0.158010 0.063922 0.312993
0.177651 0.076307 0.351925
0.202745 0.093644 0.401677
0.229869 0.114990 0.455510
0.256895 0.139620 0.509158
0.282387 0.166945 0.559876
0.305489 0.196629 0.605886
0.325633 0.228360 0.646095
0.342500 0.261924 0.679927
0.356002 0.297183 0.707138
0.366151 0.333935 0.727968
0.373294 0.372254 0.742977
0.377750 0.411768 0.752835
0.380035 0.452724 0.758594
0.204898 0.095218 0.405931
0.206446 0.096375 0.409052
0.212743 0.101174 0.421508
0.224445 0.110485 0.444756
0.240621 0.124335 0.476830
0.259632 0.142342 0.514591
0.279835 0.163989 0.554788
0.299792 0.188786 0.594544
0.318500 0.216303 0.631842
0.335134 0.246246 0.665154
0.349215 0.278215 0.693491
0.360589 0.312203 0.716549
0.369104 0.347810 0.734155
0.375034 0.385149 0.746733
0.378658 0.423834 0.754963
0.380347 0.464036 0.759519
0.258880 0.141597 0.513137
0.259761 0.142472 0.514840
0.263394 0.146155 0.522093
0.270349 0.153474 0.535904
0.280442 0.164683 0.555954
0.292884 0.179746 0.580785
0.306759 0.198451 0.608423
0.321024 0.220478 0.636861
0.334755 0.245470 0.664345
0.347194 0.273093 0.689415
0.357846 0.303066 0.711060
0.366428 0.335215 0.728696
0.372880 0.369305 0.742059
0.377172 0.405198 0.751511
0.379641 0.442675 0.757465
0.380591 0.481769 0.760677
0.303140 0.193345 0.601211
0.303637 0.194014 0.602186
0.305780 0.197058 0.606453
0.309897 0.202995 0.614650
0.316002 0.212350 0.626863
0.323762 0.225111 0.642352
0.332617 0.241283 0.660113
0.341957 0.260690 0.678770
0.351056 0.283114 0.697204
0.359441 0.308334 0.714246
0.366653 0.336073 0.728993
0.372362 0.366170 0.740993
0.376560 0.398350 0.750076
0.379143 0.432582 0.756165
0.380443 0.468518 0.759835
0.380619 0.506134 0.761634
0.336859 0.249750 0.668593
0.337145 0.250326 0.669158
0.338327 0.252841 0.671578
0.340699 0.257917 0.676271
0.344191 0.265830 0.683320
0.348655 0.276801 0.692368
0.353832 0.290896 0.702876
0.359391 0.308101 0.714098
0.364820 0.328195 0.725256
0.369756 0.351086 0.735479
0.373924 0.376565 0.744345
0.377166 0.404561 0.751356
0.379285 0.434737 0.756502
0.380401 0.467048 0.759782
0.380646 0.501188 0.761525
0.380311 0.537217 0.762329
0.360037 0.310254 0.715399
0.360177 0.310776 0.715664
0.360807 0.312941 0.716967
0.362023 0.317304 0.719494
0.363764 0.324192 0.723139
0.366112 0.333833 0.727956
0.368780 0.346236 0.733520
0.371643 0.361549 0.739441
0.374356 0.379602 0.745255
0.376751 0.400454 0.750512
0.378657 0.423820 0.754961
0.379908 0.449694 0.758244
0.380531 0.477825 0.760425
0.380602 0.508204 0.761703
0.380235 0.540532 0.762268
0.379604 0.574837 0.762645
0.373663 0.374606 0.743706
0.373718 0.375005 0.743842
0.373969 0.376938 0.744423
0.374476 0.380776 0.745540
0.375284 0.386850 0.747216
0.376234 0.395399 0.749392
0.377305 0.406496 0.751819
0.378362 0.420218 0.754279
0.379346 0.436608 0.756785
0.380140 0.455565 0.758801
0.380517 0.477019 0.760476
0.380647 0.500918 0.761514
0.380455 0.527125 0.762162
0.380001 0.555611 0.762436
0.379463 0.586024 0.762789
0.378994 0.618578 0.763419
0.379623 0.442393 0.757425
0.379610 0.442825 0.757484
0.379712 0.444470 0.757701
0.379847 0.447929 0.758032
0.380037 0.453345 0.758554
0.380242 0.461064 0.759244
0.380482 0.471033 0.760035
0.380612 0.483494 0.760782
0.380654 0.498336 0.761416
0.380547 0.515662 0.761912
0.380312 0.535410 0.762302
0.379948 0.557560 0.762457
0.379531 0.581964 0.762730
0.379067 0.608611 0.763134
0.378759 0.637263 0.764082
0.378748 0.668035 0.765668
0.380576 0.513416 0.761851
0.380571 0.513771 0.761861
0.380552 0.515273 0.761902
0.380509 0.518389 0.761981
0.380524 0.523315 0.762092
0.380421 0.530241 0.762218
0.380263 0.539330 0.762252
0.380104 0.550682 0.762383
0.379867 0.564275 0.762527
0.379551 0.580233 0.762706
0.379256 0.598494 0.762905
0.378986 0.619010 0.763433
0.378760 0.641793 0.764192
0.378739 0.666707 0.765567
0.378984 0.693660 0.767684
0.379647 0.722575 0.770698
0.379425 0.587490 0.762812
0.379415 0.587864 0.762818
0.379380 0.589220 0.762840
0.379333 0.592073 0.762888
0.379277 0.596536 0.762866
0.379153 0.602877 0.762993
0.379039 0.611251 0.763204
0.378940 0.621700 0.763524
0.378792 0.634220 0.763940
0.378719 0.648972 0.764575
0.378734 0.665798 0.765496
0.378894 0.684965 0.766883
0.379274 0.706235 0.768873
0.379913 0.729618 0.771586
0.380918 0.754881 0.775178
0.382417 0.782362 0.779930
0.378726 0.664422 0.765396
0.378727 0.664624 0.765410
0.378735 0.665970 0.765508
0.378752 0.668541 0.765699
0.378748 0.672593 0.766016
0.378818 0.678502 0.766406
0.378916 0.686144 0.766999
0.379036 0.695754 0.767902
0.379285 0.707329 0.768997
0.379614 0.720963 0.770478
0.380171 0.736858 0.772523
0.380929 0.754728 0.775136
0.381988 0.774547 0.778467
0.383347 0.796558 0.782629
0.385195 0.820480 0.787835
0.387577 0.846466 0.794241
0.380460 0.744277 0.773512
0.380471 0.744473 0.773530
0.380547 0.745669 0.773741
0.380605 0.748001 0.774141
0.380808 0.751900 0.774742
0.381046 0.757329 0.775511
0.381437 0.764458 0.776744
0.381916 0.773393 0.778222
0.382563 0.784183 0.780230
0.383382 0.796851 0.782712
0.384506 0.811509 0.785799
0.385904 0.828242 0.789633
0.387638 0.846895 0.794280
0.389756 0.867641 0.799947
0.392382 0.890197 0.806564
0.395469 0.913861 0.813793
0.385707 0.826305 0.789175
0.385749 0.826664 0.789266
0.385834 0.827733 0.789573
0.386040 0.829865 0.790052
0.386373 0.833533 0.790890
0.386805 0.838539 0.792219
0.387427 0.845127 0.793872
0.388276 0.853440 0.796049
0.389299 0.863546 0.798813
0.390611 0.875410 0.802120
0.392256 0.889346 0.806267
0.394180 0.904836 0.811074
0.396533 0.920384 0.815636
0.399337 0.935038 0.819129
0.402588 0.948451 0.821514
0.406408 0.960380 0.822536
0.395019 0.910687 0.812918
0.395047 0.910858 0.812883
0.395187 0.911785 0.813181
0.395454 0.913664 0.813717
0.395900 0.916494 0.814537
0.396537 0.920405 0.815641
0.397403 0.925390 0.816912
0.398520 0.931271 0.818356
0.399906 0.937773 0.819754
0.401642 0.944835 0.821004
0.403673 0.952233 0.821932
0.406118 0.959547 0.822498
0.408971 0.966906 0.822545
0.412308 0.973921 0.821989
0.416131 0.980705 0.820849
0.421437 0.987292 0.819342
0.081546 0.024063 0.161484
0.088119 0.026940 0.174492
0.110254 0.037419 0.218323
0.141352 0.054091 0.279952
0.175760 0.075075 0.348163
0.210263 0.099266 0.416572
0.242541 0.126068 0.480666
0.271859 0.155084 0.538890
0.297810 0.186129 0.590569
0.320082 0.218924 0.634991
0.338591 0.253341 0.672025
0.353304 0.289344 0.701774
0.364422 0.326730 0.724497
0.372299 0.365553 0.740817
0.377216 0.405509 0.751589
0.379828 0.446864 0.758008
0.101254 0.033018 0.200506
0.106098 0.035366 0.210106
0.123761 0.044389 0.245092
0.150885 0.059637 0.298836
0.182595 0.079556 0.361710
0.215087 0.102985 0.426161
0.246012 0.129245 0.487562
0.274379 0.157841 0.543930
0.299625 0.188559 0.594201
0.321386 0.221096 0.637650
0.339523 0.255347 0.673956
0.353942 0.291128 0.703059
0.364842 0.328344 0.725296
0.372542 0.367108 0.741313
0.377369 0.406995 0.751823
0.379866 0.448260 0.758073
0.152018 0.060310 0.301099
0.154641 0.061880 0.306278
0.165120 0.068299 0.327059
0.183560 0.080204 0.363629
0.207314 0.097016 0.410702
0.233327 0.117941 0.462367
0.259500 0.142214 0.514324
0.284338 0.169247 0.563722
0.306930 0.198689 0.608739
0.326665 0.230187 0.648197
0.343210 0.263547 0.681387
0.356448 0.298699 0.708208
0.366467 0.335320 0.728707
0.373517 0.373559 0.743457
0.377869 0.412972 0.753100
0.380062 0.453883 0.758614
0.209364 0.098581 0.414787
0.210832 0.099692 0.417704
0.216903 0.104410 0.429771
0.228137 0.113534 0.452050
0.243709 0.127127 0.482969
0.262157 0.144899 0.519615
0.281830 0.166307 0.558759
0.301376 0.190879 0.597648
0.319677 0.218248 0.634173
0.335997 0.247980 0.666901
0.349840 0.279814 0.694734
0.360999 0.313710 0.717425
0.369354 0.349202 0.734696
0.375205 0.386459 0.747063
0.378709 0.425051 0.755069
0.380342 0.465133 0.759619
0.261434 0.144156 0.518158
0.262279 0.145015 0.519859
0.265830 0.148674 0.526889
0.272600 0.155894 0.540358
0.282431 0.167006 0.559955
0.294603 0.181925 0.584180
0.308183 0.200487 0.611240
0.322153 0.222359 0.639146
0.335624 0.247209 0.666107
0.347841 0.274720 0.690669
0.358335 0.304559 0.711967
0.366771 0.336658 0.729285
0.373057 0.370601 0.742487
0.377298 0.406448 0.751805
0.379673 0.443816 0.757620
0.380604 0.482850 0.760744
0.304599 0.195408 0.604141
0.305125 0.196101 0.605143
0.307221 0.199091 0.609331
0.311243 0.205020 0.617365
0.317223 0.214262 0.629292
0.324830 0.226956 0.644478
0.333519 0.243039 0.661912
0.342683 0.262360 0.680323
0.351646 0.284698 0.698395
0.359868 0.309793 0.715103
0.366990 0.337511 0.729691
0.372613 0.367527 0.741549
0.376651 0.399598 0.750290
0.379235 0.433753 0.756351
0.380445 0.469567 0.759924
0.380611 0.507206 0.761670
0.337696 0.251475 0.670228
0.337968 0.252069 0.670817
0.339145 0.254560 0.673236
0.341460 0.259590 0.677847
0.344896 0.267469 0.684733
0.349301 0.278429 0.693619
0.354381 0.292441 0.704005
0.359796 0.309588 0.714943
0.365149 0.329617 0.725928
0.369985 0.352464 0.736061
0.374128 0.377902 0.744610
0.377252 0.405764 0.751653
0.379319 0.435899 0.756681
0.380434 0.468182 0.759807
0.380642 0.502266 0.761566
0.380287 0.538341 0.762344
0.360450 0.311785 0.716227
0.360617 0.312279 0.716618
0.361183 0.314434 0.717812
0.362370 0.318741 0.720218
0.364165 0.325630 0.723865
0.366428 0.335215 0.728696
0.369058 0.347654 0.734041
0.371832 0.362924 0.739862
