res/luts/WarmLookUp.CUBE
LUT_3D_SIZE 16
0.000000 0.000000 0.000000
0.097736 0.000000 0.000000
0.192001 0.000000 0.000000
0.282655 0.000000 0.000000
0.369467 0.000000 0.000000
0.450231 0.000000 0.000000
0.523663 0.000000 0.000000
0.589836 0.000000 0.000000
0.649195 0.000000 0.000000
0.702476 0.000000 0.000000
0.750988 0.000000 0.000000
0.796915 0.000000 0.000000
0.842871 0.000000 0.000000
0.892116 0.000000 0.000000
0.947366 0.000000 0.000000
0.999864 0.000000 0.000000
0.000000 0.052312 0.000000
0.097736 0.052312 0.000000
0.192001 0.052312 0.000000
0.282655 0.052312 0.000000
0.369467 0.052312 0.000000
0.450231 0.052312 0.000000
0.523663 0.052312 0.000000
0.589836 0.052312 0.000000
0.649195 0.052312 0.000000
0.702476 0.052312 0.000000
0.750988 0.052312 0.000000
0.796915 0.052312 0.000000
0.842871 0.052312 0.000000
0.892116 0.052312 0.000000
0.947366 0.052312 0.000000
0.999864 0.052312 0.000000
0.000000 0.107369 0.000000
0.097736 0.107369 0.000000
0.192001 0.107369 0.000000
0.282655 0.107369 0.000000
0.369467 0.107369 0.000000
0.450231 0.107369 0.000000
0.523663 0.107369 0.000000
0.589836 0.107369 0.000000
0.649195 0.107369 0.000000
0.702476 0.107369 0.000000
0.750988 0.107369 0.000000
0.796915 0.107369 0.000000
0.842871 0.107369 0.000000
0.892116 0.107369 0.000000
0.947366 0.107369 0.000000
0.999864 0.107369 0.000000
0.000000 0.165049 0.000000
0.097736 0.165049 0.000000
0.192001 0.165049 0.000000
0.282655 0.165049 0.000000
0.369467 0.165049 0.000000
0.450231 0.165049 0.000000
0.523663 0.165049 0.000000
0.589836 0.165049 0.000000
0.649195 0.165049 0.000000
0.702476 0.165049 0.000000
0.750988 0.165049 0.000000
0.796915 0.165049 0.000000
0.842871 0.165049 0.000000
0.892116 0.165049 0.000000
0.947366 0.165049 0.000000
0.999864 0.165049 0.000000
0.000000 0.225178 0.000000
0.097736 0.225178 0.000000
0.192001 0.225178 0.000000
0.282655 0.225178 0.000000
0.369467 0.225178 0.000000
0.450231 0.225178 0.000000
0.523663 0.225178 0.000000
0.589836 0.225178 0.000000
0.649195 0.225178 0.000000
0.702476 0.225178 0.000000
0.750988 0.225178 0.000000
0.796915 0.225178 0.000000
0.842871 0.225178 0.000000
0.892116 0.225178 0.000000
0.947366 0.225178 0.000000
0.999864 0.225178 0.000000
0.000000 0.287715 0.000000
0.097736 0.287715 0.000000
0.192001 0.287715 0.000000
0.282655 0.287715 0.000000
0.369467 0.287715 0.000000
0.450231 0.287715 0.000000
0.523663 0.287715 0.000000
0.589836 0.287715 0.000000
0.649195 0.287715 0.000000
0.702476 0.287715 0.000000
0.750988 0.287715 0.000000
0.796915 0.287715 0.000000
0.842871 0.287715 0.000000
0.892116 0.287715 0.000000
0.947366 0.287715 0.000000
0.999864 0.287715 0.000000
0.000000 0.352527 0.000000
0.097736 0.352527 0.000000
0.192001 0.352527 0.000000
0.282655 0.352527 0.000000
0.369467 0.352527 0.000000
0.450231 0.352527 0.000000
0.523663 0.352527 0.000000
0.589836 0.352527 0.000000
0.649195 0.352527 0.000000
0.702476 0.352527 0.000000
0.750988 0.352527 0.000000
0.796915 0.352527 0.000000
0.842871 0.352527 0.000000
0.892116 0.352527 0.000000
0.947366 0.352527 0.000000
0.999864 0.352527 0.000000
0.000000 0.419841 0.000000
0.097736 0.419841 0.000000
0.192001 0.419841 0.000000
0.282655 0.419841 0.000000
0.369467 0.419841 0.000000
0.450231 0.419841 0.000000
0.523663 0.419841 0.000000
0.589836 0.419841 0.000000
0.649195 0.419841 0.000000
0.702476 0.419841 0.000000
0.750988 0.419841 0.000000
0.796915 0.419841 0.000000
0.842871 0.419841 0.000000
0.892116 0.419841 0.000000
0.947366 0.419841 0.000000
0.999864 0.419841 0.000000
0.000000 0.489772 0.000000
0.097736 0.489772 0.000000
0.192001 0.489772 0.000000
0.282655 0.489772 0.000000
0.369467 0.489772 0.000000
0.450231 0.489772 0.000000
0.523663 0.489772 0.000000
0.589836 0.489772 0.000000
0.649195 0.489772 0.000000
0.702476 0.489772 0.000000
0.750988 0.489772 0.000000
0.796915 0.489772 0.000000
0.842871 0.489772 0.000000
0.892116 0.489772 0.000000
0.947366 0.489772 0.000000
0.999864 0.489772 0.000000
0.000000 0.561984 0.000000
0.097736 0.561984 0.000000
0.192001 0.561984 0.000000
0.282655 0.561984 0.000000
0.369467 0.561984 0.000000
0.450231 0.561984 0.000000
0.523663 0.561984 0.000000
0.589836 0.561984 0.000000
0.649195 0.561984 0.000000
0.702476 0.561984 0.000000
0.750988 0.561984 0.000000
0.796915 0.561984 0.000000
0.842871 0.561984 0.000000
0.892116 0.561984 0.000000
0.947366 0.561984 0.000000
0.999864 0.561984 0.000000
0.000000 0.636237 0.000000
0.097736 0.636237 0.000000
0.192001 0.636237 0.000000
0.282655 0.636237 0.000000
0.369467 0.636237 0.000000
0.450231 0.636237 0.000000
0.523663 0.636237 0.000000
0.589836 0.636237 0.000000
0.649195 0.636237 0.000000
0.702476 0.636237 0.000000
0.750988 0.636237 0.000000
0.796915 0.636237 0.000000
0.842871 0.636237 0.000000
0.892116 0.636237 0.000000
0.947366 0.636237 0.000000
0.999864 0.636237 0.000000
0.000000 0.712445 0.000000
0.097736 0.712445 0.000000
0.192001 0.712445 0.000000
0.282655 0.712445 0.000000
0.369467 0.712445 0.000000
0.450231 0.712445 0.000000
0.523663 0.712445 0.000000
0.589836 0.712445 0.000000
0.649195 0.712445 0.000000
0.702476 0.712445 0.000000
0.750988 0.712445 0.000000
0.796915 0.712445 0.000000
0.842871 0.712445 0.000000
0.892116 0.712445 0.000000
0.947366 0.712445 0.000000
0.999864 0.712445 0.000000
0.000000 0.790118 0.000000
0.097736 0.790118 0.000000
0.192001 0.790118 0.000000
0.282655 0.790118 0.000000
0.369467 0.790118 0.000000
0.450231 0.790118 0.000000
0.523663 0.790118 0.000000
0.589836 0.790118 0.000000
0.649195 0.790118 0.000000
0.702476 0.790118 0.000000
0.750988 0.790118 0.000000
0.796915 0.790118 0.000000
0.842871 0.790118 0.000000
0.892116 0.790118 0.000000
0.947366 0.790118 0.000000
0.999864 0.790118 0.000000
0.000000 0.869108 0.000000
0.097736 0.869108 0.000000
0.192001 0.869108 0.000000
0.282655 0.869108 0.000000
0.369467 0.869108 0.000000
0.450231 0.869108 0.000000
0.523663 0.869108 0.000000
0.589836 0.869108 0.000000
0.649195 0.869108 0.000000
0.702476 0.869108 0.000000
0.750988 0.869108 0.000000
0.796915 0.869108 0.000000
0.842871 0.869108 0.000000
0.892116 0.869108 0.000000
0.947366 0.869108 0.000000
0.999864 0.869108 0.000000
0.000000 0.948114 0.000000
0.097736 0.948114 0.000000
0.192001 0.948114 0.000000
0.282655 0.948114 0.000000
0.369467 0.948114 0.000000
0.450231 0.948114 0.000000
0.523663 0.948114 0.000000
0.589836 0.948114 0.000000
0.649195 0.948114 0.000000
0.702476 0.948114 0.000000
0.750988 0.948114 0.000000
0.796915 0.948114 0.000000
0.842871 0.948114 0.000000
0.892116 0.948114 0.000000
0.947366 0.948114 0.000000
0.999864 0.948114 0.000000
0.000000 1.000034 0.000000
0.097736 1.000034 0.000000
0.192001 1.000034 0.000000
0.282655 1.000034 0.000000
0.369467 1.000034 0.000000
0.450231 1.000034 0.000000
0.523663 1.000034 0.000000
0.589836 1.000034 0.000000
0.649195 1.000034 0.000000
0.702476 1.000034 0.000000
0.750988 1.000034 0.000000
0.796915 1.000034 0.000000
0.842871 1.000034 0.000000
0.892116 1.000034 0.000000
0.947366 1.000034 0.000000
0.999864 1.000034 0.000000
0.000000 0.000000 0.065655
0.097736 0.000000 0.065655
0.192001 0.000000 0.065655
0.282655 0.000000 0.065655
0.369467 0.000000 0.065655
0.450231 0.000000 0.065655
0.523663 0.000000 0.065655
0.589836 0.000000 0.065655
0.649195 0.000000 0.065655
0.702476 0.000000 0.065655
0.750988 0.000000 0.065655
0.796915 0.000000 0.065655
0.842871 0.000000 0.065655
0.892116 0.000000 0.065655
0.947366 0.000000 0.065655
0.999864 0.000000 0.065655
0.000000 0.052312 0.065655
0.097736 0.052312 0.065655
0.192001 0.052312 0.065655
0.282655 0.052312 0.065655
0.369467 0.052312 0.065655
0.450231 0.052312 0.065655
0.523663 0.052312 0.065655
0.589836 0.052312 0.065655
0.649195 0.052312 0.065655
0.702476 0.052312 0.065655
0.750988 0.052312 0.065655
0.796915 0.052312 0.065655
0.842871 0.052312 0.065655
0.892116 0.052312 0.065655
0.947366 0.052312 0.065655
0.999864 0.052312 0.065655
0.000000 0.107369 0.065655
0.097736 0.107369 0.065655
0.192001 0.107369 0.065655
0.282655 0.107369 0.065655
0.369467 0.107369 0.065655
0.450231 0.107369 0.065655
0.523663 0.107369 0.065655
0.589836 0.107369 0.065655
0.649195 0.107369 0.065655
0.702476 0.107369 0.065655
0.750988 0.107369 0.065655
0.796915 0.107369 0.065655
0.842871 0.107369 0.065655
0.892116 0.107369 0.065655
0.947366 0.107369 0.065655
0.999864 0.107369 0.065655
0.000000 0.165049 0.065655
0.097736 0.165049 0.065655
0.192001 0.165049 0.065655
0.282655 0.165049 0.065655
0.369467 0.165049 0.065655
0.450231 0.165049 0.065655
0.523663 0.165049 0.065655
0.589836 0.165049 0.065655
0.649195 0.165049 0.065655
0.702476 0.165049 0.065655
0.750988 0.165049 0.065655
0.796915 0.165049 0.065655
0.842871 0.165049 0.065655
0.892116 0.165049 0.065655
0.947366 0.165049 0.065655
0.999864 0.165049 0.065655
0.000000 0.225178 0.065655
0.097736 0.225178 0.065655
0.192001 0.225178 0.065655
0.282655 0.225178 0.065655
0.369467 0.225178 0.065655
0.450231 0.225178 0.065655
0.523663 0.225178 0.065655
0.589836 0.225178 0.065655
0.649195 0.225178 0.065655
0.702476 0.225178 0.065655
0.750988 0.225178 0.065655
0.796915 0.225178 0.065655
0.842871 0.225178 0.065655
0.892116 0.225178 0.065655
0.947366 0.225178 0.065655
0.999864 0.225178 0.065655
0.000000 0.287715 0.065655
0.097736 0.287715 0.065655
0.192001 0.287715 0.065655
0.282655 0.287715 0.065655
0.369467 0.287715 0.065655
0.450231 0.287715 0.065655
0.523663 0.287715 0.065655
0.589836 0.287715 0.065655
0.649195 0.287715 0.065655
0.702476 0.287715 0.065655
0.750988 0.287715 0.065655
0.796915 0.287715 0.065655
0.842871 0.287715 0.065655
0.892116 0.287715 0.065655
0.947366 0.287715 0.065655
0.999864 0.287715 0.065655
0.000000 0.352527 0.065655
0.097736 0.352527 0.065655
0.192001 0.352527 0.065655
0.282655 0.352527 0.065655
0.369467 0.352527 0.065655
0.450231 0.352527 0.065655
0.523663 0.352527 0.065655
0.589836 0.352527 0.065655
0.649195 0.352527 0.065655
0.702476 0.352527 0.065655
0.750988 0.352527 0.065655
0.796915 0.352527 0.065655
0.842871 0.352527 0.065655
0.892116 0.352527 0.065655
0.947366 0.352527 0.065655
0.999864 0.352527 0.065655
0.000000 0.419841 0.065655
0.097736 0.419841 0.065655
0.192001 0.419841 0.065655
0.282655 0.419841 0.065655
0.369467 0.419841 0.065655
0.450231 0.419841 0.065655
0.523663 0.419841 0.065655
0.589836 0.419841 0.065655
0.649195 0.419841 0.065655
0.702476 0.419841 0.065655
0.750988 0.419841 0.065655
0.796915 0.419841 0.065655
0.842871 0.419841 0.065655
0.892116 0.419841 0.065655
0.947366 0.419841 0.065655
0.999864 0.419841 0.065655
0.000000 0.489772 0.065655
0.097736 0.489772 0.065655
0.192001 0.489772 0.065655
0.282655 0.489772 0.065655
0.369467 0.489772 0.065655
0.450231 0.489772 0.065655
0.523663 0.489772 0.065655
0.589836 0.489772 0.065655
0.649195 0.489772 0.065655
0.702476 0.489772 0.065655
0.750988 0.489772 0.065655
0.796915 0.489772 0.065655
0.842871 0.489772 0.065655
0.892116 0.489772 0.065655
0.947366 0.489772 0.065655
0.999864 0.489772 0.065655
0.000000 0.561984 0.065655
0.097736 0.561984 0.065655
0.192001 0.561984 0.065655
0.282655 0.561984 0.065655
0.369467 0.561984 0.065655
0.450231 0.561984 0.065655
0.523663 0.561984 0.065655
0.589836 0.561984 0.065655
0.649195 0.561984 0.065655
0.702476 0.561984 0.065655
0.750988 0.561984 0.065655
0.796915 0.561984 0.065655
0.842871 0.561984 0.065655
0.892116 0.561984 0.065655
0.947366 0.561984 0.065655
0.999864 0.561984 0.065655
0.000000 0.636237 0.065655
0.097736 0.636237 0.065655
0.192001 0.636237 0.065655
0.282655 0.636237 0.065655
0.369467 0.636237 0.065655
0.450231 0.636237 0.065655
0.523663 0.636237 0.065655
0.589836 0.636237 0.065655
0.649195 0.636237 0.065655
0.702476 0.636237 0.065655
0.750988 0.636237 0.065655
0.796915 0.636237 0.065655
0.842871 0.636237 0.065655
0.892116 0.636237 0.065655
0.947366 0.636237 0.065655
0.999864 0.636237 0.065655
0.000000 0.712445 0.065655
0.097736 0.712445 0.065655
0.192001 0.712445 0.065655
0.282655 0.712445 0.065655
0.369467 0.712445 0.065655
0.450231 0.712445 0.065655
0.523663 0.712445 0.065655
0.589836 0.712445 0.065655
0.649195 0.712445 0.065655
0.702476 0.712445 0.065655
0.750988 0.712445 0.065655
0.796915 0.712445 0.065655
0.842871 0.712445 0.065655
0.892116 0.712445 0.065655
0.947366 0.712445 0.065655
0.999864 0.712445 0.065655
0.000000 0.790118 0.065655
0.097736 0.790118 0.065655
0.192001 0.790118 0.065655
0.282655 0.790118 0.065655
0.369467 0.790118 0.065655
0.450231 0.790118 0.065655
0.523663 0.790118 0.065655
0.589836 0.790118 0.065655
0.649195 0.790118 0.065655
0.702476 0.790118 0.065655
0.750988 0.790118 0.065655
0.796915 0.790118 0.065655
0.842871 0.790118 0.065655
0.892116 0.790118 0.065655
0.947366 0.790118 0.065655
0.999864 0.790118 0.065655
0.000000 0.869108 0.065655
0.097736 0.869108 0.065655
0.192001 0.869108 0.065655
0.282655 0.869108 0.065655
0.369467 0.869108 0.065655
0.450231 0.869108 0.065655
0.523663 0.869108 0.065655
0.589836 0.869108 0.065655
0.649195 0.869108 0.065655
0.702476 0.869108 0.065655
0.750988 0.869108 0.065655
0.796915 0.869108 0.065655
0.842871 0.869108 0.065655
0.892116 0.869108 0.065655
0.947366 0.869108 0.065655
0.999864 0.869108 0.065655
0.000000 0.948114 0.065655
0.097736 0.948114 0.065655
0.192001 0.948114 0.065655
0.282655 0.948114 0.065655
0.369467 0.948114 0.065655
0.450231 0.948114 0.065655
0.523663 0.948114 0.065655
0.589836 0.948114 0.065655
0.649195 0.948114 0.065655
0.702476 0.948114 0.065655
0.750988 0.948114 0.065655
0.796915 0.948114 0.065655
0.842871 0.948114 0.065655
0.892116 0.948114 0.065655
0.947366 0.948114 0.065655
0.999864 0.948114 0.065655
0.000000 1.000034 0.065655
0.097736 1.000034 0.065655
0.192001 1.000034 0.065655
0.282655 1.000034 0.065655
0.369467 1.000034 0.065655
0.450231 1.000034 0.065655
0.523663 1.000034 0.065655
0.589836 1.000034 0.065655
0.649195 1.000034 0.065655
0.702476 1.000034 0.065655
0.750988 1.000034 0.065655
0.796915 1.000034 0.065655
0.842871 1.000034 0.065655
0.892116 1.000034 0.065655
0.947366 1.000034 0.065655
0.999864 1.000034 0.065655
0.000000 0.000000 0.128724
0.097736 0.000000 0.128724
0.192001 0.000000 0.128724
0.282655 0.000000 0.128724
0.369467 0.000000 0.128724
0.450231 0.000000 0.128724
0.523663 0.000000 0.128724
0.589836 0.000000 0.128724
0.649195 0.000000 0.128724
0.702476 0.000000 0.128724
0.750988 0.000000 0.128724
0.796915 0.000000 0.128724
0.842871 0.000000 0.128724
0.892116 0.000000 0.128724
0.947366 0.000000 0.128724
0.999864 0.000000 0.128724
0.000000 0.052312 0.128724
0.097736 0.052312 0.128724
0.192001 0.052312 0.128724
0.282655 0.052312 0.128724
0.369467 0.052312 0.128724
0.450231 0.052312 0.128724
0.523663 0.052312 0.128724
0.589836 0.052312 0.128724
0.649195 0.052312 0.128724
0.702476 0.052312 0.128724
0.750988 0.052312 0.128724
0.796915 0.052312 0.128724
0.842871 0.052312 0.128724
0.892116 0.052312 0.128724
0.947366 0.052312 0.128724
0.999864 0.052312 0.128724
0.000000 0.107369 0.128724
0.097736 0.107369 0.128724
0.192001 0.107369 0.128724
0.282655 0.107369 0.128724
0.369467 0.107369 0.128724
0.450231 0.107369 0.128724
0.523663 0.107369 0.128724
0.589836 0.107369 0.128724
0.649195 0.107369 0.128724
0.702476 0.107369 0.128724
0.750988 0.107369 0.128724
0.796915 0.107369 0.128724
0.842871 0.107369 0.128724
0.892116 0.107369 0.128724
0.947366 0.107369 0.128724
0.999864 0.107369 0.128724
0.000000 0.165049 0.128724
0.097736 0.165049 0.128724
0.192001 0.165049 0.128724
0.282655 0.165049 0.128724
0.369467 0.165049 0.128724
0.450231 0.165049 0.128724
0.523663 0.165049 0.128724
0.589836 0.165049 0.128724
0.649195 0.165049 0.128724
0.702476 0.165049 0.128724
0.750988 0.165049 0.128724
0.796915 0.165049 0.128724
0.842871 0.165049 0.128724
0.892116 0.165049 0.128724
0.947366 0.165049 0.128724
0.999864 0.165049 0.128724
0.000000 0.225178 0.128724
0.097736 0.225178 0.128724
0.192001 0.225178 0.128724
0.282655 0.225178 0.128724
0.369467 0.225178 0.128724
0.450231 0.225178 0.128724
0.523663 0.225178 0.128724
0.589836 0.225178 0.128724
0.649195 0.225178 0.128724
0.702476 0.225178 0.128724
0.750988 0.225178 0.128724
0.796915 0.225178 0.128724
0.842871 0.225178 0.128724
0.892116 0.225178 0.128724
0.947366 0.225178 0.128724
0.999864 0.225178 0.128724
0.000000 0.287715 0.128724
0.097736 0.287715 0.128724
0.192001 0.287715 0.128724
0.282655 0.287715 0.128724
0.369467 0.287715 0.128724
0.450231 0.287715 0.128724
0.523663 0.287715 0.128724
0.589836 0.287715 0.128724
0.649195 0.287715 0.128724
0.702476 0.287715 0.128724
0.750988 0.287715 0.128724
0.796915 0.287715 0.128724
0.842871 0.287715 0.128724
0.892116 0.287715 0.128724
0.947366 0.287715 0.128724
0.999864 0.287715 0.128724
0.000000 0.352527 0.128724
0.097736 0.352527 0.128724
0.192001 0.352527 0.128724
0.282655 0.352527 0.128724
0.369467 0.352527 0.128724
0.450231 0.352527 0.128724
0.523663 0.352527 0.128724
0.589836 0.352527 0.128724
0.649195 0.352527 0.128724
0.702476 0.352527 0.128724
0.750988 0.352527 0.128724
0.796915 0.352527 0.128724
0.842871 0.352527 0.128724
0.892116 0.352527 0.128724
0.947366 0.352527 0.128724
0.999864 0.352527 0.128724
0.000000 0.419841 0.128724
0.097736 0.419841 0.128724
0.192001 0.419841 0.128724
0.282655 0.419841 0.128724
0.369467 0.419841 0.128724
0.450231 0.419841 0.128724
0.523663 0.419841 0.128724
0.589836 0.419841 0.128724
0.649195 0.419841 0.128724
0.702476 0.419841 0.128724
0.750988 0.419841 0.128724
0.796915 0.419841 0.128724
0.842871 0.419841 0.128724
0.892116 0.419841 0.128724
0.947366 0.419841 0.128724
0.999864 0.419841 0.128724
0.000000 0.489772 0.128724
0.097736 0.489772 0.128724
0.192001 0.489772 0.128724
0.282655 0.489772 0.128724
0.369467 0.489772 0.128724
0.450231 0.489772 0.128724
0.523663 0.489772 0.128724
0.589836 0.489772 0.128724
0.649195 0.489772 0.128724
0.702476 0.489772 0.128724
0.750988 0.489772 0.128724
0.796915 0.489772 0.128724
0.842871 0.489772 0.128724
0.892116 0.489772 0.128724
0.947366 0.489772 0.128724
0.999864 0.489772 0.128724
0.000000 0.561984 0.128724
0.097736 0.561984 0.128724
0.192001 0.561984 0.128724
0.282655 0.561984 0.128724
0.369467 0.561984 0.128724
0.450231 0.561984 0.128724
0.523663 0.561984 0.128724
0.589836 0.561984 0.128724
0.649195 0.561984 0.128724
0.702476 0.561984 0.128724
0.750988 0.561984 0.128724
0.796915 0.561984 0.128724
0.842871 0.561984 0.128724
0.892116 0.561984 0.128724
0.947366 0.561984 0.128724
0.999864 0.561984 0.128724
0.000000 0.636237 0.128724
0.097736 0.636237 0.128724
0.192001 0.636237 0.128724
0.282655 0.636237 0.128724
0.369467 0.636237 0.128724
0.450231 0.636237 0.128724
0.523663 0.636237 0.128724
0.589836 0.636237 0.128724
0.649195 0.636237 0.128724
0.702476 0.636237 0.128724
0.750988 0.636237 0.128724
0.796915 0.636237 0.128724
0.842871 0.636237 0.128724
0.892116 0.636237 0.128724
0.947366 0.636237 0.128724
0.999864 0.636237 0.128724
0.000000 0.712445 0.128724
0.097736 0.712445 0.128724
0.192001 0.712445 0.128724
0.282655 0.712445 0.128724
0.369467 0.712445 0.128724
0.450231 0.712445 0.128724
0.523663 0.712445 0.128724
0.589836 0.712445 0.128724
0.649195 0.712445 0.128724
0.702476 0.712445 0.128724
0.750988 0.712445 0.128724
0.796915 0.712445 0.128724
0.842871 0.712445 0.128724
0.892116 0.712445 0.128724
0.947366 0.712445 0.128724
0.999864 0.712445 0.128724
0.000000 0.790118 0.128724
0.097736 0.790118 0.128724
0.192001 0.790118 0.128724
0.282655 0.790118 0.128724
0.369467 0.790118 0.128724
0.450231 0.790118 0.128724
0.523663 0.790118 0.128724
0.589836 0.790118 0.128724
0.649195 0.790118 0.128724
0.702476 0.790118 0.128724
0.750988 0.790118 0.128724
0.796915 0.790118 0.128724
0.842871 0.790118 0.128724
0.892116 0.790118 0.128724
0.947366 0.790118 0.128724
0.999864 0.790118 0.128724
0.000000 0.869108 0.128724
0.097736 0.869108 0.128724
0.192001 0.869108 0.128724
0.282655 0.869108 0.128724
0.369467 0.869108 0.128724
0.450231 0.869108 0.128724
0.523663 0.869108 0.128724
0.589836 0.869108 0.128724
0.649195 0.869108 0.128724
0.702476 0.869108 0.128724
0.750988 0.869108 0.128724
0.796915 0.869108 0.128724
0.842871 0.869108 0.128724
0.892116 0.869108 0.128724
0.947366 0.869108 0.128724
0.999864 0.869108 0.128724
0.000000 0.948114 0.128724
0.097736 0.948114 0.128724
0.192001 0.948114 0.128724
0.282655 0.948114 0.128724
0.369467 0.948114 0.128724
0.450231 0.948114 0.128724
0.523663 0.948114 0.128724
0.589836 0.948114 0.128724
0.649195 0.948114 0.128724
0.702476 0.948114 0.128724
0.750988 0.948114 0.128724
0.796915 0.948114 0.128724
0.842871 0.948114 0.128724
0.892116 0.948114 0.128724
0.947366 0.948114 0.128724
0.999864 0.948114 0.128724
0.000000 1.000034 0.128724
0.097736 1.000034 0.128724
0.192001 1.000034 0.128724
0.282655 1.000034 0.128724
0.369467 1.000034 0.128724
0.450231 1.000034 0.128724
0.523663 1.000034 0.128724
0.589836 1.000034 0.128724
0.649195 1.000034 0.128724
0.702476 1.000034 0.128724
0.750988 1.000034 0.128724
0.796915 1.000034 0.128724
0.842871 1.000034 0.128724
0.892116 1.000034 0.128724
0.947366 1.000034 0.128724
0.999864 1.000034 0.128724
0.000000 0.000000 0.189132
0.097736 0.000000 0.189132
0.192001 0.000000 0.189132
0.282655 0.000000 0.189132
0.369467 0.000000 0.189132
0.450231 0.000000 0.189132
0.523663 0.000000 0.189132
0.589836 0.000000 0.189132
0.649195 0.000000 0.189132
0.702476 0.000000 0.189132
0.750988 0.000000 0.189132
0.796915 0.000000 0.189132
0.842871 0.000000 0.189132
0.892116 0.000000 0.189132
0.947366 0.000000 0.189132
0.999864 0.000000 0.189132
0.000000 0.052312 0.189132
0.097736 0.052312 0.189132
0.192001 0.052312 0.189132
0.282655 0.052312 0.189132
0.369467 0.052312 0.189132
0.450231 0.052312 0.189132
0.523663 0.052312 0.189132
0.589836 0.052312 0.189132
0.649195 0.052312 0.189132
0.702476 0.052312 0.189132
0.750988 0.052312 0.189132
0.796915 0.052312 0.189132
0.842871 0.052312 0.189132
0.892116 0.052312 0.189132
0.947366 0.052312 0.189132
0.999864 0.052312 0.189132
0.000000 0.107369 0.189132
0.097736 0.107369 0.189132
0.192001 0.107369 0.189132
0.282655 0.107369 0.189132
0.369467 0.107369 0.189132
0.450231 0.107369 0.189132
0.523663 0.107369 0.189132
0.589836 0.107369 0.189132
0.649195 0.107369 0.189132
0.702476 0.107369 0.189132
0.750988 0.107369 0.189132
0.796915 0.107369 0.189132
0.842871 0.107369 0.189132
0.892116 0.107369 0.189132
0.947366 0.107369 0.189132
0.999864 0.107369 0.189132
0.000000 0.165049 0.189132
0.097736 0.165049 0.189132
0.192001 0.165049 0.189132
0.282655 0.165049 0.189132
0.369467 0.165049 0.189132
0.450231 0.165049 0.189132
0.523663 0.165049 0.189132
0.589836 0.165049 0.189132
0.649195 0.165049 0.189132
0.702476 0.165049 0.189132
0.750988 0.165049 0.189132
0.796915 0.165049 0.189132
0.842871 0.165049 0.189132
0.892116 0.165049 0.189132
0.947366 0.165049 0.189132
0.999864 0.165049 0.189132
0.000000 0.225178 0.189132
0.097736 0.225178 0.189132
0.192001 0.225178 0.189132
0.282655 0.225178 0.189132
0.369467 0.225178 0.189132
0.450231 0.225178 0.189132
0.523663 0.225178 0.189132
0.589836 0.225178 0.189132
0.649195 0.225178 0.189132
0.702476 0.225178 0.189132
0.750988 0.225178 0.189132
0.796915 0.225178 0.189132
0.842871 0.225178 0.189132
0.892116 0.225178 0.189132
0.947366 0.225178 0.189132
0.999864 0.225178 0.189132
0.000000 0.287715 0.189132
0.097736 0.287715 0.189132
0.192001 0.287715 0.189132
0.282655 0.287715 0.189132
0.369467 0.287715 0.189132
0.450231 0.287715 0.189132
0.523663 0.287715 0.189132
0.589836 0.287715 0.189132
0.649195 0.287715 0.189132
0.702476 0.287715 0.189132
0.750988 0.287715 0.189132
0.796915 0.287715 0.189132
0.842871 0.287715 0.189132
0.892116 0.287715 0.189132
0.947366 0.287715 0.189132
0.999864 0.287715 0.189132
0.000000 0.352527 0.189132
0.097736 0.352527 0.189132
0.192001 0.352527 0.189132
0.282655 0.352527 0.189132
0.369467 0.352527 0.189132
0.450231 0.352527 0.189132
0.523663 0.352527 0.189132
0.589836 0.352527 0.189132
0.649195 0.352527 0.189132
0.702476 0.352527 0.189132
0.750988 0.352527 0.189132
0.796915 0.352527 0.189132
0.842871 0.352527 0.189132
0.892116 0.352527 0.189132
0.947366 0.352527 0.189132
0.999864 0.352527 0.189132
0.000000 0.419841 0.189132
0.097736 0.419841 0.189132
0.192001 0.419841 0.189132
0.282655 0.419841 0.189132
0.369467 0.419841 0.189132
0.450231 0.419841 0.189132
0.523663 0.419841 0.189132
0.589836 0.419841 0.189132
