res/luts/WarmLookUp.CUBE
LUT_3D_SIZE 6
0.000000 0.000000 0.000000
0.282655 0.000000 0.000000
0.523663 0.000000 0.000000
0.702476 0.000000 0.000000
0.842871 0.000000 0.000000
0.999864 0.000000 0.000000
0.000000 0.165049 0.000000
0.282655 0.165049 0.000000
0.523663 0.165049 0.000000
0.702476 0.165049 0.000000
0.842871 0.165049 0.000000
0.999864 0.165049 0.000000
0.000000 0.352527 0.000000
0.282655 0.352527 0.000000
0.523663 0.352527 0.000000
0.702476 0.352527 0.000000
0.842871 0.352527 0.000000
0.999864 0.352527 0.000000
0.000000 0.561984 0.000000
0.282655 0.561984 0.000000
0.523663 0.561984 0.000000
0.702476 0.561984 0.000000
0.842871 0.561984 0.000000
0.999864 0.561984 0.000000
0.000000 0.790118 0.000000
0.282655 0.790118 0.000000
0.523663 0.790118 0.000000
0.702476 0.790118 0.000000
0.842871 0.790118 0.000000
0.999864 0.790118 0.000000
0.000000 1.000034 0.000000
0.282655 1.000034 0.000000
0.523663 1.000034 0.000000
0.702476 1.000034 0.000000
0.842871 1.000034 0.000000
0.999864 1.000034 0.000000
0.000000 0.000000 0.189132
0.282655 0.000000 0.189132
0.523663 0.000000 0.189132
0.702476 0.000000 0.189132
0.842871 0.000000 0.189132
0.999864 0.000000 0.189132
0.000000 0.165049 0.189132
0.282655 0.165049 0.189132
0.523663 0.165049 0.189132
0.702476 0.165049 0.189132
0.842871 0.165049 0.189132
0.999864 0.165049 0.189132
0.000000 0.352527 0.189132
0.282655 0.352527 0.189132
0.523663 0.352527 0.189132
0.702476 0.352527 0.189132
0.842871 0.352527 0.189132
0.999864 0.352527 0.189132
0.000000 0.561984 0.189132
0.282655 0.561984 0.189132
0.523663 0.561984 0.189132
0.702476 0.561984 0.189132
0.842871 0.561984 0.189132
0.999864 0.561984 0.189132
0.000000 0.790118 0.189132
0.282655 0.790118 0.189132
0.523663 0.790118 0.189132
0.702476 0.790118 0.189132
0.842871 0.790118 0.189132
0.999864 0.790118 0.189132
0.000000 1.000034 0.189132
0.282655 1.000034 0.189132
0.523663 1.000034 0.189132
0.702476 1.000034 0.189132
0.842871 1.000034 0.189132
0.999864 1.000034 0.189132
0.000000 0.000000 0.349793
0.282655 0.000000 0.349793
0.523663 0.000000 0.349793
0.702476 0.000000 0.349793
0.842871 0.000000 0.349793
0.999864 0.000000 0.349793
0.000000 0.165049 0.349793
0.282655 0.165049 0.349793
0.523663 0.165049 0.349793
0.702476 0.165049 0.349793
0.842871 0.165049 0.349793
0.999864 0.165049 0.349793
0.000000 0.352527 0.349793
0.282655 0.352527 0.349793
0.523663 0.352527 0.349793
0.702476 0.352527 0.349793
0.842871 0.352527 0.349793
0.999864 0.352527 0.349793
0.000000 0.561984 0.349793
0.282655 0.561984 0.349793
0.523663 0.561984 0.349793
0.702476 0.561984 0.349793
0.842871 0.561984 0.349793
0.999864 0.561984 0.349793
0.000000 0.790118 0.349793
0.282655 0.790118 0.349793
0.523663 0.790118 0.349793
0.702476 0.790118 0.349793
0.842871 0.790118 0.349793
0.999864 0.790118 0.349793
0.000000 1.000034 0.349793
0.282655 1.000034 0.349793
0.523663 1.000034 0.349793
0.702476 1.000034 0.349793
0.842871 1.000034 0.349793
0.999864 1.000034 0.349793
0.000000 0.000000 0.473474
0.282655 0.000000 0.473474
0.523663 0.000000 0.473474
0.702476 0.000000 0.473474
0.842871 0.000000 0.473474
0.999864 0.000000 0.473474
0.000000 0.165049 0.473474
0.282655 0.165049 0.473474
0.523663 0.165049 0.473474
0.702476 0.165049 0.473474
0.842871 0.165049 0.473474
0.999864 0.165049 0.473474
0.000000 0.352527 0.473474
0.282655 0.352527 0.473474
0.523663 0.352527 0.473474
0.702476 0.352527 0.473474
0.842871 0.352527 0.473474
0.999864 0.352527 0.473474
0.000000 0.561984 0.473474
0.282655 0.561984 0.473474
0.523663 0.561984 0.473474
0.702476 0.561984 0.473474
0.842871 0.561984 0.473474
0.999864 0.561984 0.473474
0.000000 0.790118 0.473474
0.282655 0.790118 0.473474
0.523663 0.790118 0.473474
0.702476 0.790118 0.473474
0.842871 0.790118 0.473474
0.999864 0.790118 0.473474
0.000000 1.000034 0.473474
0.282655 1.000034 0.473474
0.523663 1.000034 0.473474
0.702476 1.000034 0.473474
0.842871 1.000034 0.473474
0.999864 1.000034 0.473474
0.000000 0.000000 0.566406
0.282655 0.000000 0.566406
0.523663 0.000000 0.566406
0.702476 0.000000 0.566406
0.842871 0.000000 0.566406
0.999864 0.000000 0.566406
0.000000 0.165049 0.566406
0.282655 0.165049 0.566406
0.523663 0.165049 0.566406
0.702476 0.165049 0.566406
0.842871 0.165049 0.566406
0.999864 0.165049 0.566406
0.000000 0.352527 0.566406
0.282655 0.352527 0.566406
0.523663 0.352527 0.566406
0.702476 0.352527 0.566406
0.842871 0.352527 0.566406
0.999864 0.352527 0.566406
0.000000 0.561984 0.566406
0.282655 0.561984 0.566406
0.523663 0.561984 0.566406
0.702476 0.561984 0.566406
0.842871 0.561984 0.566406
0.999864 0.561984 0.566406
0.000000 0.790118 0.566406
0.282655 0.790118 0.566406
0.523663 0.790118 0.566406
0.702476 0.790118 0.566406
0.842871 0.790118 0.566406
0.999864 0.790118 0.566406
0.000000 1.000034 0.566406
0.282655 1.000034 0.566406
0.523663 1.000034 0.566406
0.702476 1.000034 0.566406
0.842871 1.000034 0.566406
0.999864 1.000034 0.566406
0.000000 0.000000 0.997552
0.282655 0.000000 0.997552
0.523663 0.000000 0.997552
0.702476 0.000000 0.997552
0.842871 0.000000 0.997552
0.999864 0.000000 0.997552
0.000000 0.165049 0.997552
0.282655 0.165049 0.997552
0.523663 0.165049 0.997552
0.702476 0.165049 0.997552
0.842871 0.165049 0.997552
0.999864 0.165049 0.997552
0.000000 0.352527 0.997552
0.282655 0.352527 0.997552
0.523663 0.352527 0.997552
0.702476 0.352527 0.997552
0.842871 0.352527 0.997552
0.999864 0.352527 0.997552
0.000000 0.561984 0.997552
0.282655 0.561984 0.997552
0.523663 0.561984 0.997552
0.702476 0.561984 0.997552
0.842871 0.561984 0.997552
0.999864 0.561984 0.997552
0.000000 0.790118 0.997552
0.282655 0.790118 0.997552
0.523663 0.790118 0.997552
0.702476 0.790118 0.997552
0.842871 0.790118 0.997552
0.999864 0.790118 0.997552
0.000000 1.000034 0.997552
0.282655 1.000034 0.997552
0.523663 1.000034 0.997552
0.702476 1.000034 0.997552
0.842871 1.000034 0.997552
0.999864 1.000034 0.997552
